DaVinci_ST2084_1D_LUT_LinToe/ST2084_PQ_to_Linear_1D_65536_LinToe.cube
TITLE "ST2084 PQ to Linear Y=L/10000 - 1D 65536 LinToe"
LUT_1D_SIZE 65536
DOMAIN_MIN 0.00000000000000000 0.00000000000000000 0.00000000000000000
DOMAIN_MAX 1.00000000000000000 1.00000000000000000 1.00000000000000000

0.00000000000000000 0.00000000000000000 0.00000000000000000
0.00000000298415908 0.00000000298415908 0.00000000298415908
0.00000000611846126 0.00000000611846126 0.00000000611846126
0.00000000925276343 0.00000000925276343 0.00000000925276343
0.00000001238706560 0.00000001238706560 0.00000001238706560
0.00000001552136777 0.00000001552136777 0.00000001552136777
0.00000001865566994 0.00000001865566994 0.00000001865566994
0.00000002178997212 0.00000002178997212 0.00000002178997212
0.00000002492427429 0.00000002492427429 0.00000002492427429
0.00000002805857646 0.00000002805857646 0.00000002805857646
0.00000003119287863 0.00000003119287863 0.00000003119287863
0.00000003432718080 0.00000003432718080 0.00000003432718080
0.00000003746148297 0.00000003746148297 0.00000003746148297
0.00000004059578515 0.00000004059578515 0.00000004059578515
0.00000004373008732 0.00000004373008732 0.00000004373008732
0.00000004686438949 0.00000004686438949 0.00000004686438949
0.00000004999869166 0.00000004999869166 0.00000004999869166
0.00000005313299383 0.00000005313299383 0.00000005313299383
0.00000005626729601 0.00000005626729601 0.00000005626729601
0.00000005940159818 0.00000005940159818 0.00000005940159818
0.00000006253590035 0.00000006253590035 0.00000006253590035
0.00000006567020252 0.00000006567020252 0.00000006567020252
0.00000006880450469 0.00000006880450469 0.00000006880450469
0.00000007193880687 0.00000007193880687 0.00000007193880687
0.00000007507310904 0.00000007507310904 0.00000007507310904
0.00000007820741121 0.00000007820741121 0.00000007820741121
0.00000008134171338 0.00000008134171338 0.00000008134171338
0.00000008447601555 0.00000008447601555 0.00000008447601555
0.00000008761031773 0.00000008761031773 0.00000008761031773
0.00000009074461990 0.00000009074461990 0.00000009074461990
0.00000009387892207 0.00000009387892207 0.00000009387892207
0.00000009701322424 0.00000009701322424 0.00000009701322424
0.00000010014752641 0.00000010014752641 0.00000010014752641
0.00000010328182859 0.00000010328182859 0.00000010328182859
0.00000010641613076 0.00000010641613076 0.00000010641613076
0.00000010955043293 0.00000010955043293 0.00000010955043293
0.00000011268473510 0.00000011268473510 0.00000011268473510
0.00000011581903727 0.00000011581903727 0.00000011581903727
0.00000011895333945 0.00000011895333945 0.00000011895333945
0.00000012208764162 0.00000012208764162 0.00000012208764162
0.00000012522194379 0.00000012522194379 0.00000012522194379
0.00000012835624596 0.00000012835624596 0.00000012835624596
0.00000013149054813 0.00000013149054813 0.00000013149054813
0.00000013462485031 0.00000013462485031 0.00000013462485031
0.00000013775915248 0.00000013775915248 0.00000013775915248
0.00000014089345465 0.00000014089345465 0.00000014089345465
0.00000014402775682 0.00000014402775682 0.00000014402775682
0.00000014716205899 0.00000014716205899 0.00000014716205899
0.00000015029636116 0.00000015029636116 0.00000015029636116
0.00000015343066334 0.00000015343066334 0.00000015343066334
0.00000015656496551 0.00000015656496551 0.00000015656496551
0.00000015969926768 0.00000015969926768 0.00000015969926768
0.00000016283356985 0.00000016283356985 0.00000016283356985
0.00000016596787202 0.00000016596787202 0.00000016596787202
0.00000016910217420 0.00000016910217420 0.00000016910217420
0.00000017223647637 0.00000017223647637 0.00000017223647637
0.00000017537077854 0.00000017537077854 0.00000017537077854
0.00000017850508071 0.00000017850508071 0.00000017850508071
0.00000018163938288 0.00000018163938288 0.00000018163938288
0.00000018477368506 0.00000018477368506 0.00000018477368506
0.00000018790798723 0.00000018790798723 0.00000018790798723
0.00000019104228940 0.00000019104228940 0.00000019104228940
0.00000019417659157 0.00000019417659157 0.00000019417659157
0.00000019731089374 0.00000019731089374 0.00000019731089374
0.00000020044519592 0.00000020044519592 0.00000020044519592
0.00000020357949809 0.00000020357949809 0.00000020357949809
0.00000020671380026 0.00000020671380026 0.00000020671380026
0.00000020984810243 0.00000020984810243 0.00000020984810243
0.00000021298240460 0.00000021298240460 0.00000021298240460
0.00000021611670678 0.00000021611670678 0.00000021611670678
0.00000021925100895 0.00000021925100895 0.00000021925100895
0.00000022238531112 0.00000022238531112 0.00000022238531112
0.00000022551961329 0.00000022551961329 0.00000022551961329
0.00000022865391546 0.00000022865391546 0.00000022865391546
0.00000023178821764 0.00000023178821764 0.00000023178821764
0.00000023492251981 0.00000023492251981 0.00000023492251981
0.00000023805682198 0.00000023805682198 0.00000023805682198
0.00000024119112415 0.00000024119112415 0.00000024119112415
0.00000024432542632 0.00000024432542632 0.00000024432542632
0.00000024745972849 0.00000024745972849 0.00000024745972849
0.00000025059403067 0.00000025059403067 0.00000025059403067
0.00000025372833284 0.00000025372833284 0.00000025372833284
0.00000025686263501 0.00000025686263501 0.00000025686263501
0.00000025999693718 0.00000025999693718 0.00000025999693718
0.00000026313123935 0.00000026313123935 0.00000026313123935
0.00000026626554153 0.00000026626554153 0.00000026626554153
0.00000026939984370 0.00000026939984370 0.00000026939984370
0.00000027253414587 0.00000027253414587 0.00000027253414587
0.00000027566844804 0.00000027566844804 0.00000027566844804
0.00000027880275021 0.00000027880275021 0.00000027880275021
0.00000028193705239 0.00000028193705239 0.00000028193705239
0.00000028507135456 0.00000028507135456 0.00000028507135456
0.00000028820565673 0.00000028820565673 0.00000028820565673
0.00000029133995890 0.00000029133995890 0.00000029133995890
0.00000029447426107 0.00000029447426107 0.00000029447426107
0.00000029760856325 0.00000029760856325 0.00000029760856325
0.00000030074286542 0.00000030074286542 0.00000030074286542
0.00000030387716759 0.00000030387716759 0.00000030387716759
0.00000030701146976 0.00000030701146976 0.00000030701146976
0.00000031014577193 0.00000031014577193 0.00000031014577193
0.00000031328007411 0.00000031328007411 0.00000031328007411
0.00000031641437628 0.00000031641437628 0.00000031641437628
0.00000031954867845 0.00000031954867845 0.00000031954867845
0.00000032268298062 0.00000032268298062 0.00000032268298062
0.00000032581728279 0.00000032581728279 0.00000032581728279
0.00000032895158497 0.00000032895158497 0.00000032895158497
0.00000033208588714 0.00000033208588714 0.00000033208588714
0.00000033522018931 0.00000033522018931 0.00000033522018931
0.00000033835449148 0.00000033835449148 0.00000033835449148
0.00000034148879365 0.00000034148879365 0.00000034148879365
0.00000034462309582 0.00000034462309582 0.00000034462309582
0.00000034775739800 0.00000034775739800 0.00000034775739800
0.00000035089170017 0.00000035089170017 0.00000035089170017
0.00000035402600234 0.00000035402600234 0.00000035402600234
0.00000035716030451 0.00000035716030451 0.00000035716030451
0.00000036029460668 0.00000036029460668 0.00000036029460668
0.00000036342890886 0.00000036342890886 0.00000036342890886
0.00000036656321103 0.00000036656321103 0.00000036656321103
0.00000036969751320 0.00000036969751320 0.00000036969751320
0.00000037283181537 0.00000037283181537 0.00000037283181537
0.00000037596611754 0.00000037596611754 0.00000037596611754
0.00000037910041972 0.00000037910041972 0.00000037910041972
0.00000038223472189 0.00000038223472189 0.00000038223472189
0.00000038536902406 0.00000038536902406 0.00000038536902406
0.00000038850332623 0.00000038850332623 0.00000038850332623
0.00000039163762840 0.00000039163762840 0.00000039163762840
0.00000039477193058 0.00000039477193058 0.00000039477193058
0.00000039790623275 0.00000039790623275 0.00000039790623275
0.00000040104053492 0.00000040104053492 0.00000040104053492
0.00000040417483709 0.00000040417483709 0.00000040417483709
0.00000040730913926 0.00000040730913926 0.00000040730913926
0.00000041044344144 0.00000041044344144 0.00000041044344144
0.00000041357774361 0.00000041357774361 0.00000041357774361
0.00000041671204578 0.00000041671204578 0.00000041671204578
0.00000041984634795 0.00000041984634795 0.00000041984634795
0.00000042298065012 0.00000042298065012 0.00000042298065012
0.00000042611495230 0.00000042611495230 0.00000042611495230
0.00000042924925447 0.00000042924925447 0.00000042924925447
0.00000043238355664 0.00000043238355664 0.00000043238355664
0.00000043551785881 0.00000043551785881 0.00000043551785881
0.00000043865216098 0.00000043865216098 0.00000043865216098
0.00000044178646316 0.00000044178646316 0.00000044178646316
0.00000044492076533 0.00000044492076533 0.00000044492076533
0.00000044805506750 0.00000044805506750 0.00000044805506750
0.00000045118936967 0.00000045118936967 0.00000045118936967
0.00000045432367184 0.00000045432367184 0.00000045432367184
0.00000045745797401 0.00000045745797401 0.00000045745797401
0.00000046059227619 0.00000046059227619 0.00000046059227619
0.00000046372657836 0.00000046372657836 0.00000046372657836
0.00000046686088053 0.00000046686088053 0.00000046686088053
0.00000046999518270 0.00000046999518270 0.00000046999518270
0.00000047312948487 0.00000047312948487 0.00000047312948487
0.00000047626378705 0.00000047626378705 0.00000047626378705
0.00000047939808922 0.00000047939808922 0.00000047939808922
0.00000048253239139 0.00000048253239139 0.00000048253239139
0.00000048566669356 0.00000048566669356 0.00000048566669356
0.00000048880099573 0.00000048880099573 0.00000048880099573
0.00000049193529791 0.00000049193529791 0.00000049193529791
0.00000049506960008 0.00000049506960008 0.00000049506960008
0.00000049820390225 0.00000049820390225 0.00000049820390225
0.00000050133820442 0.00000050133820442 0.00000050133820442
0.00000050447250659 0.00000050447250659 0.00000050447250659
0.00000050760680877 0.00000050760680877 0.00000050760680877
0.00000051074111094 0.00000051074111094 0.00000051074111094
0.00000051387541311 0.00000051387541311 0.00000051387541311
0.00000051700971528 0.00000051700971528 0.00000051700971528
0.00000052014401745 0.00000052014401745 0.00000052014401745
0.00000052327831963 0.00000052327831963 0.00000052327831963
0.00000052641262180 0.00000052641262180 0.00000052641262180
0.00000052954692397 0.00000052954692397 0.00000052954692397
0.00000053268122614 0.00000053268122614 0.00000053268122614
0.00000053581552831 0.00000053581552831 0.00000053581552831
0.00000053894983049 0.00000053894983049 0.00000053894983049
0.00000054208413266 0.00000054208413266 0.00000054208413266
0.00000054521843483 0.00000054521843483 0.00000054521843483
0.00000054835273700 0.00000054835273700 0.00000054835273700
0.00000055148703917 0.00000055148703917 0.00000055148703917
0.00000055462134134 0.00000055462134134 0.00000055462134134
0.00000055775564352 0.00000055775564352 0.00000055775564352
0.00000056088994569 0.00000056088994569 0.00000056088994569
0.00000056402424786 0.00000056402424786 0.00000056402424786
0.00000056715855003 0.00000056715855003 0.00000056715855003
0.00000057029285220 0.00000057029285220 0.00000057029285220
0.00000057342715438 0.00000057342715438 0.00000057342715438
0.00000057656145655 0.00000057656145655 0.00000057656145655
0.00000057969575872 0.00000057969575872 0.00000057969575872
0.00000058283006089 0.00000058283006089 0.00000058283006089
0.00000058596436306 0.00000058596436306 0.00000058596436306
0.00000058909866524 0.00000058909866524 0.00000058909866524
0.00000059223296741 0.00000059223296741 0.00000059223296741
0.00000059536726958 0.00000059536726958 0.00000059536726958
0.00000059850157175 0.00000059850157175 0.00000059850157175
0.00000060163587392 0.00000060163587392 0.00000060163587392
0.00000060477017610 0.00000060477017610 0.00000060477017610
0.00000060790447827 0.00000060790447827 0.00000060790447827
0.00000061103878044 0.00000061103878044 0.00000061103878044
0.00000061417308261 0.00000061417308261 0.00000061417308261
0.00000061730738478 0.00000061730738478 0.00000061730738478
0.00000062044168696 0.00000062044168696 0.00000062044168696
0.00000062357598913 0.00000062357598913 0.00000062357598913
0.00000062671029130 0.00000062671029130 0.00000062671029130
0.00000062984459347 0.00000062984459347 0.00000062984459347
0.00000063297889564 0.00000063297889564 0.00000063297889564
0.00000063611319782 0.00000063611319782 0.00000063611319782
0.00000063924749999 0.00000063924749999 0.00000063924749999
0.00000064238180216 0.00000064238180216 0.00000064238180216
0.00000064551610433 0.00000064551610433 0.00000064551610433
0.00000064865040650 0.00000064865040650 0.00000064865040650
0.00000065178470867 0.00000065178470867 0.00000065178470867
0.00000065491901085 0.00000065491901085 0.00000065491901085
0.00000065805331302 0.00000065805331302 0.00000065805331302
0.00000066118761519 0.00000066118761519 0.00000066118761519
0.00000066432191736 0.00000066432191736 0.00000066432191736
0.00000066745621953 0.00000066745621953 0.00000066745621953
0.00000067059052171 0.00000067059052171 0.00000067059052171
0.00000067372482388 0.00000067372482388 0.00000067372482388
0.00000067685912605 0.00000067685912605 0.00000067685912605
0.00000067999342822 0.00000067999342822 0.00000067999342822
0.00000068312773039 0.00000068312773039 0.00000068312773039
0.00000068626203257 0.00000068626203257 0.00000068626203257
0.00000068939633474 0.00000068939633474 0.00000068939633474
0.00000069253063691 0.00000069253063691 0.00000069253063691
0.00000069566493908 0.00000069566493908 0.00000069566493908
0.00000069879924125 0.00000069879924125 0.00000069879924125
0.00000070193354343 0.00000070193354343 0.00000070193354343
0.00000070506784560 0.00000070506784560 0.00000070506784560
0.00000070820214777 0.00000070820214777 0.00000070820214777
0.00000071133644994 0.00000071133644994 0.00000071133644994
0.00000071447075211 0.00000071447075211 0.00000071447075211
0.00000071760505429 0.00000071760505429 0.00000071760505429
0.00000072073935646 0.00000072073935646 0.00000072073935646
0.00000072387365863 0.00000072387365863 0.00000072387365863
0.00000072700796080 0.00000072700796080 0.00000072700796080
0.00000073014226297 0.00000073014226297 0.00000073014226297
0.00000073327656515 0.00000073327656515 0.00000073327656515
0.00000073641086732 0.00000073641086732 0.00000073641086732
0.00000073954516949 0.00000073954516949 0.00000073954516949
0.00000074267947166 0.00000074267947166 0.00000074267947166
0.00000074581377383 0.00000074581377383 0.00000074581377383
0.00000074894807601 0.00000074894807601 0.00000074894807601
0.00000075208237818 0.00000075208237818 0.00000075208237818
0.00000075521668035 0.00000075521668035 0.00000075521668035
0.00000075835098252 0.00000075835098252 0.00000075835098252
0.00000076148528469 0.00000076148528469 0.00000076148528469
0.00000076461958686 0.00000076461958686 0.00000076461958686
0.00000076775388904 0.00000076775388904 0.00000076775388904
0.00000077088819121 0.00000077088819121 0.00000077088819121
0.00000077402249338 0.00000077402249338 0.00000077402249338
0.00000077715679555 0.00000077715679555 0.00000077715679555
0.00000078029109772 0.00000078029109772 0.00000078029109772
0.00000078342539990 0.00000078342539990 0.00000078342539990
0.00000078655970207 0.00000078655970207 0.00000078655970207
0.00000078969400424 0.00000078969400424 0.00000078969400424
0.00000079282830641 0.00000079282830641 0.00000079282830641
0.00000079596260858 0.00000079596260858 0.00000079596260858
0.00000079909691076 0.00000079909691076 0.00000079909691076
0.00000080223121293 0.00000080223121293 0.00000080223121293
0.00000080536551510 0.00000080536551510 0.00000080536551510
0.00000080849981727 0.00000080849981727 0.00000080849981727
0.00000081163411944 0.00000081163411944 0.00000081163411944
0.00000081476842162 0.00000081476842162 0.00000081476842162
0.00000081790272379 0.00000081790272379 0.00000081790272379
0.00000082103702596 0.00000082103702596 0.00000082103702596
0.00000082417132813 0.00000082417132813 0.00000082417132813
0.00000082730563030 0.00000082730563030 0.00000082730563030
0.00000083043993248 0.00000083043993248 0.00000083043993248
0.00000083357423465 0.00000083357423465 0.00000083357423465
0.00000083670853682 0.00000083670853682 0.00000083670853682
0.00000083984283899 0.00000083984283899 0.00000083984283899
0.00000084297714116 0.00000084297714116 0.00000084297714116
0.00000084611144334 0.00000084611144334 0.00000084611144334
0.00000084924574551 0.00000084924574551 0.00000084924574551
0.00000085238004768 0.00000085238004768 0.00000085238004768
0.00000085551434985 0.00000085551434985 0.00000085551434985
0.00000085864865202 0.00000085864865202 0.00000085864865202
0.00000086178295419 0.00000086178295419 0.00000086178295419
0.00000086491725637 0.00000086491725637 0.00000086491725637
0.00000086805155854 0.00000086805155854 0.00000086805155854
0.00000087118586071 0.00000087118586071 0.00000087118586071
0.00000087432016288 0.00000087432016288 0.00000087432016288
0.00000087745446505 0.00000087745446505 0.00000087745446505
0.00000088058876723 0.00000088058876723 0.00000088058876723
0.00000088372306940 0.00000088372306940 0.00000088372306940
0.00000088685737157 0.00000088685737157 0.00000088685737157
0.00000088999167374 0.00000088999167374 0.00000088999167374
0.00000089312597591 0.00000089312597591 0.00000089312597591
0.00000089626027809 0.00000089626027809 0.00000089626027809
0.00000089939458026 0.00000089939458026 0.00000089939458026
0.00000090252888243 0.00000090252888243 0.00000090252888243
0.00000090566318460 0.00000090566318460 0.00000090566318460
0.00000090879748677 0.00000090879748677 0.00000090879748677
0.00000091193178895 0.00000091193178895 0.00000091193178895
0.00000091506609112 0.00000091506609112 0.00000091506609112
0.00000091820039329 0.00000091820039329 0.00000091820039329
0.00000092133469546 0.00000092133469546 0.00000092133469546
0.00000092446899763 0.00000092446899763 0.00000092446899763
0.00000092760329981 0.00000092760329981 0.00000092760329981
0.00000093073760198 0.00000093073760198 0.00000093073760198
0.00000093387190415 0.00000093387190415 0.00000093387190415
0.00000093700620632 0.00000093700620632 0.00000093700620632
0.00000094014050849 0.00000094014050849 0.00000094014050849
0.00000094327481067 0.00000094327481067 0.00000094327481067
0.00000094640911284 0.00000094640911284 0.00000094640911284
0.00000094954341501 0.00000094954341501 0.00000094954341501
0.00000095267771718 0.00000095267771718 0.00000095267771718
0.00000095581201935 0.00000095581201935 0.00000095581201935
0.00000095894632153 0.00000095894632153 0.00000095894632153
0.00000096208062370 0.00000096208062370 0.00000096208062370
0.00000096521492587 0.00000096521492587 0.00000096521492587
0.00000096834922804 0.00000096834922804 0.00000096834922804
0.00000097148353021 0.00000097148353021 0.00000097148353021
0.00000097461783238 0.00000097461783238 0.00000097461783238
0.00000097775213456 0.00000097775213456 0.00000097775213456
0.00000098088643673 0.00000098088643673 0.00000098088643673
0.00000098402073890 0.00000098402073890 0.00000098402073890
0.00000098715504107 0.00000098715504107 0.00000098715504107
0.00000099028934324 0.00000099028934324 0.00000099028934324
0.00000099342364542 0.00000099342364542 0.00000099342364542
0.00000099655794759 0.00000099655794759 0.00000099655794759
0.00000099969224976 0.00000099969224976 0.00000099969224976
0.00000100282655193 0.00000100282655193 0.00000100282655193
0.00000100596085410 0.00000100596085410 0.00000100596085410
0.00000100909515628 0.00000100909515628 0.00000100909515628
0.00000101222945845 0.00000101222945845 0.00000101222945845
0.00000101536376062 0.00000101536376062 0.00000101536376062
0.00000101849806279 0.00000101849806279 0.00000101849806279
0.00000102163236496 0.00000102163236496 0.00000102163236496
0.00000102476666714 0.00000102476666714 0.00000102476666714
0.00000102790096931 0.00000102790096931 0.00000102790096931
0.00000103103527148 0.00000103103527148 0.00000103103527148
0.00000103416957365 0.00000103416957365 0.00000103416957365
0.00000103730387582 0.00000103730387582 0.00000103730387582
0.00000104043817800 0.00000104043817800 0.00000104043817800
0.00000104357248017 0.00000104357248017 0.00000104357248017
0.00000104670678234 0.00000104670678234 0.00000104670678234
0.00000104984108451 0.00000104984108451 0.00000104984108451
0.00000105297538668 0.00000105297538668 0.00000105297538668
0.00000105610968886 0.00000105610968886 0.00000105610968886
0.00000105924399103 0.00000105924399103 0.00000105924399103
0.00000106237829320 0.00000106237829320 0.00000106237829320
0.00000106551259537 0.00000106551259537 0.00000106551259537
0.00000106864689754 0.00000106864689754 0.00000106864689754
0.00000107178119971 0.00000107178119971 0.00000107178119971
0.00000107491550189 0.00000107491550189 0.00000107491550189
0.00000107804980406 0.00000107804980406 0.00000107804980406
0.00000108118410623 0.00000108118410623 0.00000108118410623
0.00000108431840840 0.00000108431840840 0.00000108431840840
0.00000108745271057 0.00000108745271057 0.00000108745271057
0.00000109058701275 0.00000109058701275 0.00000109058701275
0.00000109372131492 0.00000109372131492 0.00000109372131492
0.00000109685561709 0.00000109685561709 0.00000109685561709
0.00000109998991926 0.00000109998991926 0.00000109998991926
0.00000110312422143 0.00000110312422143 0.00000110312422143
0.00000110625852361 0.00000110625852361 0.00000110625852361
0.00000110939282578 0.00000110939282578 0.00000110939282578
0.00000111252712795 0.00000111252712795 0.00000111252712795
0.00000111566143012 0.00000111566143012 0.00000111566143012
0.00000111879573229 0.00000111879573229 0.00000111879573229
0.00000112193003447 0.00000112193003447 0.00000112193003447
0.00000112506433664 0.00000112506433664 0.00000112506433664
0.00000112819863881 0.00000112819863881 0.00000112819863881
0.00000113133294098 0.00000113133294098 0.00000113133294098
0.00000113446724315 0.00000113446724315 0.00000113446724315
0.00000113760154533 0.00000113760154533 0.00000113760154533
0.00000114073584750 0.00000114073584750 0.00000114073584750
0.00000114387014967 0.00000114387014967 0.00000114387014967
0.00000114700445184 0.00000114700445184 0.00000114700445184
0.00000115013875401 0.00000115013875401 0.00000115013875401
0.00000115327305619 0.00000115327305619 0.00000115327305619
0.00000115640735836 0.00000115640735836 0.00000115640735836
0.00000115954166053 0.00000115954166053 0.00000115954166053
0.00000116267596270 0.00000116267596270 0.00000116267596270
0.00000116581026487 0.00000116581026487 0.00000116581026487
0.00000116894456704 0.00000116894456704 0.00000116894456704
0.00000117207886922 0.00000117207886922 0.00000117207886922
0.00000117521317139 0.00000117521317139 0.00000117521317139
0.00000117834747356 0.00000117834747356 0.00000117834747356
0.00000118148177573 0.00000118148177573 0.00000118148177573
0.00000118461607790 0.00000118461607790 0.00000118461607790
0.00000118775038008 0.00000118775038008 0.00000118775038008
0.00000119088468225 0.00000119088468225 0.00000119088468225
0.00000119401898442 0.00000119401898442 0.00000119401898442
0.00000119715328659 0.00000119715328659 0.00000119715328659
0.00000120028758876 0.00000120028758876 0.00000120028758876
0.00000120342189094 0.00000120342189094 0.00000120342189094
0.00000120655619311 0.00000120655619311 0.00000120655619311
0.00000120969049528 0.00000120969049528 0.00000120969049528
0.00000121282479745 0.00000121282479745 0.00000121282479745
0.00000121595909962 0.00000121595909962 0.00000121595909962
0.00000121909340180 0.00000121909340180 0.00000121909340180
0.00000122222770397 0.00000122222770397 0.00000122222770397
0.00000122536200614 0.00000122536200614 0.00000122536200614
0.00000122849630831 0.00000122849630831 0.00000122849630831
0.00000123163061048 0.00000123163061048 0.00000123163061048
0.00000123476491266 0.00000123476491266 0.00000123476491266
0.00000123789921483 0.00000123789921483 0.00000123789921483
