DaVinci_HLG_1D_LUT_NikonZ8/HLG_to_Linear_1D_65536_LinToe_NikonZ8.cube
TITLE "Nikon Z8 HLG to Linear - 1D 65536 LinToe"
LUT_1D_SIZE 65536
LUT_1D_INPUT_RANGE 0.00000000000000000 1.00000000000000000

0.00000000000000000 0.00000000000000000 0.00000000000000000
0.00000016201252377 0.00000016201252377 0.00000016201252377
0.00000032402504754 0.00000032402504754 0.00000032402504754
0.00000048603757131 0.00000048603757131 0.00000048603757131
0.00000064805009507 0.00000064805009507 0.00000064805009507
0.00000081006261884 0.00000081006261884 0.00000081006261884
0.00000097207514261 0.00000097207514261 0.00000097207514261
0.00000113408766638 0.00000113408766638 0.00000113408766638
0.00000129610019015 0.00000129610019015 0.00000129610019015
0.00000145811271392 0.00000145811271392 0.00000145811271392
0.00000162012523768 0.00000162012523768 0.00000162012523768
0.00000178213776145 0.00000178213776145 0.00000178213776145
0.00000194415028522 0.00000194415028522 0.00000194415028522
0.00000210616280899 0.00000210616280899 0.00000210616280899
0.00000226817533276 0.00000226817533276 0.00000226817533276
0.00000243018785653 0.00000243018785653 0.00000243018785653
0.00000259220038030 0.00000259220038030 0.00000259220038030
0.00000275421290406 0.00000275421290406 0.00000275421290406
0.00000291622542783 0.00000291622542783 0.00000291622542783
0.00000307823795160 0.00000307823795160 0.00000307823795160
0.00000324025047537 0.00000324025047537 0.00000324025047537
0.00000340226299914 0.00000340226299914 0.00000340226299914
0.00000356427552291 0.00000356427552291 0.00000356427552291
0.00000372628804668 0.00000372628804668 0.00000372628804668
0.00000388830057044 0.00000388830057044 0.00000388830057044
0.00000405031309421 0.00000405031309421 0.00000405031309421
0.00000421232561798 0.00000421232561798 0.00000421232561798
0.00000437433814175 0.00000437433814175 0.00000437433814175
0.00000453635066552 0.00000453635066552 0.00000453635066552
0.00000469836318929 0.00000469836318929 0.00000469836318929
0.00000486037571305 0.00000486037571305 0.00000486037571305
0.00000502238823682 0.00000502238823682 0.00000502238823682
0.00000518440076059 0.00000518440076059 0.00000518440076059
0.00000534641328436 0.00000534641328436 0.00000534641328436
0.00000550842580813 0.00000550842580813 0.00000550842580813
0.00000567043833190 0.00000567043833190 0.00000567043833190
0.00000583245085567 0.00000583245085567 0.00000583245085567
0.00000599446337943 0.00000599446337943 0.00000599446337943
0.00000615647590320 0.00000615647590320 0.00000615647590320
0.00000631848842697 0.00000631848842697 0.00000631848842697
0.00000648050095074 0.00000648050095074 0.00000648050095074
0.00000664251347451 0.00000664251347451 0.00000664251347451
0.00000680452599828 0.00000680452599828 0.00000680452599828
0.00000696653852205 0.00000696653852205 0.00000696653852205
0.00000712855104581 0.00000712855104581 0.00000712855104581
0.00000729056356958 0.00000729056356958 0.00000729056356958
0.00000745257609335 0.00000745257609335 0.00000745257609335
0.00000761458861712 0.00000761458861712 0.00000761458861712
0.00000777660114089 0.00000777660114089 0.00000777660114089
0.00000793861366466 0.00000793861366466 0.00000793861366466
0.00000810062618842 0.00000810062618842 0.00000810062618842
0.00000826263871219 0.00000826263871219 0.00000826263871219
0.00000842465123596 0.00000842465123596 0.00000842465123596
0.00000858666375973 0.00000858666375973 0.00000858666375973
0.00000874867628350 0.00000874867628350 0.00000874867628350
0.00000891068880727 0.00000891068880727 0.00000891068880727
0.00000907270133104 0.00000907270133104 0.00000907270133104
0.00000923471385480 0.00000923471385480 0.00000923471385480
0.00000939672637857 0.00000939672637857 0.00000939672637857
0.00000955873890234 0.00000955873890234 0.00000955873890234
0.00000972075142611 0.00000972075142611 0.00000972075142611
0.00000988276394988 0.00000988276394988 0.00000988276394988
0.00001004477647365 0.00001004477647365 0.00001004477647365
0.00001020678899741 0.00001020678899741 0.00001020678899741
0.00001036880152118 0.00001036880152118 0.00001036880152118
0.00001053081404495 0.00001053081404495 0.00001053081404495
0.00001069282656872 0.00001069282656872 0.00001069282656872
0.00001085483909249 0.00001085483909249 0.00001085483909249
0.00001101685161626 0.00001101685161626 0.00001101685161626
0.00001117886414003 0.00001117886414003 0.00001117886414003
0.00001134087666379 0.00001134087666379 0.00001134087666379
0.00001150288918756 0.00001150288918756 0.00001150288918756
0.00001166490171133 0.00001166490171133 0.00001166490171133
0.00001182691423510 0.00001182691423510 0.00001182691423510
0.00001198892675887 0.00001198892675887 0.00001198892675887
0.00001215093928264 0.00001215093928264 0.00001215093928264
0.00001231295180641 0.00001231295180641 0.00001231295180641
0.00001247496433017 0.00001247496433017 0.00001247496433017
0.00001263697685394 0.00001263697685394 0.00001263697685394
0.00001279898937771 0.00001279898937771 0.00001279898937771
0.00001296100190148 0.00001296100190148 0.00001296100190148
0.00001312301442525 0.00001312301442525 0.00001312301442525
0.00001328502694902 0.00001328502694902 0.00001328502694902
0.00001344703947278 0.00001344703947278 0.00001344703947278
0.00001360905199655 0.00001360905199655 0.00001360905199655
0.00001377106452032 0.00001377106452032 0.00001377106452032
0.00001393307704409 0.00001393307704409 0.00001393307704409
0.00001409508956786 0.00001409508956786 0.00001409508956786
0.00001425710209163 0.00001425710209163 0.00001425710209163
0.00001441911461540 0.00001441911461540 0.00001441911461540
0.00001458112713916 0.00001458112713916 0.00001458112713916
0.00001474313966293 0.00001474313966293 0.00001474313966293
0.00001490515218670 0.00001490515218670 0.00001490515218670
0.00001506716471047 0.00001506716471047 0.00001506716471047
0.00001522917723424 0.00001522917723424 0.00001522917723424
0.00001539118975801 0.00001539118975801 0.00001539118975801
0.00001555320228178 0.00001555320228178 0.00001555320228178
0.00001571521480554 0.00001571521480554 0.00001571521480554
0.00001587722732931 0.00001587722732931 0.00001587722732931
0.00001603923985308 0.00001603923985308 0.00001603923985308
0.00001620125237685 0.00001620125237685 0.00001620125237685
0.00001636326490062 0.00001636326490062 0.00001636326490062
0.00001652527742439 0.00001652527742439 0.00001652527742439
0.00001668728994815 0.00001668728994815 0.00001668728994815
0.00001684930247192 0.00001684930247192 0.00001684930247192
0.00001701131499569 0.00001701131499569 0.00001701131499569
0.00001717332751946 0.00001717332751946 0.00001717332751946
0.00001733534004323 0.00001733534004323 0.00001733534004323
0.00001749735256700 0.00001749735256700 0.00001749735256700
0.00001765936509077 0.00001765936509077 0.00001765936509077
0.00001782137761453 0.00001782137761453 0.00001782137761453
0.00001798339013830 0.00001798339013830 0.00001798339013830
0.00001814540266207 0.00001814540266207 0.00001814540266207
0.00001830741518584 0.00001830741518584 0.00001830741518584
0.00001846942770961 0.00001846942770961 0.00001846942770961
0.00001863144023338 0.00001863144023338 0.00001863144023338
0.00001879345275714 0.00001879345275714 0.00001879345275714
0.00001895546528091 0.00001895546528091 0.00001895546528091
0.00001911747780468 0.00001911747780468 0.00001911747780468
0.00001927949032845 0.00001927949032845 0.00001927949032845
0.00001944150285222 0.00001944150285222 0.00001944150285222
0.00001960351537599 0.00001960351537599 0.00001960351537599
0.00001976552789976 0.00001976552789976 0.00001976552789976
0.00001992754042352 0.00001992754042352 0.00001992754042352
0.00002008955294729 0.00002008955294729 0.00002008955294729
0.00002025156547106 0.00002025156547106 0.00002025156547106
0.00002041357799483 0.00002041357799483 0.00002041357799483
0.00002057559051860 0.00002057559051860 0.00002057559051860
0.00002073760304237 0.00002073760304237 0.00002073760304237
0.00002089961556614 0.00002089961556614 0.00002089961556614
0.00002106162808990 0.00002106162808990 0.00002106162808990
0.00002122364061367 0.00002122364061367 0.00002122364061367
0.00002138565313744 0.00002138565313744 0.00002138565313744
0.00002154766566121 0.00002154766566121 0.00002154766566121
0.00002170967818498 0.00002170967818498 0.00002170967818498
0.00002187169070875 0.00002187169070875 0.00002187169070875
0.00002203370323251 0.00002203370323251 0.00002203370323251
0.00002219571575628 0.00002219571575628 0.00002219571575628
0.00002235772828005 0.00002235772828005 0.00002235772828005
0.00002251974080382 0.00002251974080382 0.00002251974080382
0.00002268175332759 0.00002268175332759 0.00002268175332759
0.00002284376585136 0.00002284376585136 0.00002284376585136
0.00002300577837513 0.00002300577837513 0.00002300577837513
0.00002316779089889 0.00002316779089889 0.00002316779089889
0.00002332980342266 0.00002332980342266 0.00002332980342266
0.00002349181594643 0.00002349181594643 0.00002349181594643
0.00002365382847020 0.00002365382847020 0.00002365382847020
0.00002381584099397 0.00002381584099397 0.00002381584099397
0.00002397785351774 0.00002397785351774 0.00002397785351774
0.00002413986604150 0.00002413986604150 0.00002413986604150
0.00002430187856527 0.00002430187856527 0.00002430187856527
0.00002446389108904 0.00002446389108904 0.00002446389108904
0.00002462590361281 0.00002462590361281 0.00002462590361281
0.00002478791613658 0.00002478791613658 0.00002478791613658
0.00002494992866035 0.00002494992866035 0.00002494992866035
0.00002511194118412 0.00002511194118412 0.00002511194118412
0.00002527395370788 0.00002527395370788 0.00002527395370788
0.00002543596623165 0.00002543596623165 0.00002543596623165
0.00002559797875542 0.00002559797875542 0.00002559797875542
0.00002575999127919 0.00002575999127919 0.00002575999127919
0.00002592200380296 0.00002592200380296 0.00002592200380296
0.00002608401632673 0.00002608401632673 0.00002608401632673
0.00002624602885050 0.00002624602885050 0.00002624602885050
0.00002640804137426 0.00002640804137426 0.00002640804137426
0.00002657005389803 0.00002657005389803 0.00002657005389803
0.00002673206642180 0.00002673206642180 0.00002673206642180
0.00002689407894557 0.00002689407894557 0.00002689407894557
0.00002705609146934 0.00002705609146934 0.00002705609146934
0.00002721810399311 0.00002721810399311 0.00002721810399311
0.00002738011651687 0.00002738011651687 0.00002738011651687
0.00002754212904064 0.00002754212904064 0.00002754212904064
0.00002770414156441 0.00002770414156441 0.00002770414156441
0.00002786615408818 0.00002786615408818 0.00002786615408818
0.00002802816661195 0.00002802816661195 0.00002802816661195
0.00002819017913572 0.00002819017913572 0.00002819017913572
0.00002835219165949 0.00002835219165949 0.00002835219165949
0.00002851420418325 0.00002851420418325 0.00002851420418325
0.00002867621670702 0.00002867621670702 0.00002867621670702
0.00002883822923079 0.00002883822923079 0.00002883822923079
0.00002900024175456 0.00002900024175456 0.00002900024175456
0.00002916225427833 0.00002916225427833 0.00002916225427833
0.00002932426680210 0.00002932426680210 0.00002932426680210
0.00002948627932587 0.00002948627932587 0.00002948627932587
0.00002964829184963 0.00002964829184963 0.00002964829184963
0.00002981030437340 0.00002981030437340 0.00002981030437340
0.00002997231689717 0.00002997231689717 0.00002997231689717
0.00003013432942094 0.00003013432942094 0.00003013432942094
0.00003029634194471 0.00003029634194471 0.00003029634194471
0.00003045835446848 0.00003045835446848 0.00003045835446848
0.00003062036699224 0.00003062036699224 0.00003062036699224
0.00003078237951601 0.00003078237951601 0.00003078237951601
0.00003094439203978 0.00003094439203978 0.00003094439203978
0.00003110640456355 0.00003110640456355 0.00003110640456355
0.00003126841708732 0.00003126841708732 0.00003126841708732
0.00003143042961109 0.00003143042961109 0.00003143042961109
0.00003159244213486 0.00003159244213486 0.00003159244213486
0.00003175445465862 0.00003175445465862 0.00003175445465862
0.00003191646718239 0.00003191646718239 0.00003191646718239
0.00003207847970616 0.00003207847970616 0.00003207847970616
0.00003224049222993 0.00003224049222993 0.00003224049222993
0.00003240250475370 0.00003240250475370 0.00003240250475370
0.00003256451727747 0.00003256451727747 0.00003256451727747
0.00003272652980123 0.00003272652980123 0.00003272652980123
0.00003288854232500 0.00003288854232500 0.00003288854232500
0.00003305055484877 0.00003305055484877 0.00003305055484877
0.00003321256737254 0.00003321256737254 0.00003321256737254
0.00003337457989631 0.00003337457989631 0.00003337457989631
0.00003353659242008 0.00003353659242008 0.00003353659242008
0.00003369860494385 0.00003369860494385 0.00003369860494385
0.00003386061746761 0.00003386061746761 0.00003386061746761
0.00003402262999138 0.00003402262999138 0.00003402262999138
0.00003418464251515 0.00003418464251515 0.00003418464251515
0.00003434665503892 0.00003434665503892 0.00003434665503892
0.00003450866756269 0.00003450866756269 0.00003450866756269
0.00003467068008646 0.00003467068008646 0.00003467068008646
0.00003483269261023 0.00003483269261023 0.00003483269261023
0.00003499470513399 0.00003499470513399 0.00003499470513399
0.00003515671765776 0.00003515671765776 0.00003515671765776
0.00003531873018153 0.00003531873018153 0.00003531873018153
0.00003548074270530 0.00003548074270530 0.00003548074270530
0.00003564275522907 0.00003564275522907 0.00003564275522907
0.00003580476775284 0.00003580476775284 0.00003580476775284
0.00003596678027660 0.00003596678027660 0.00003596678027660
0.00003612879280037 0.00003612879280037 0.00003612879280037
0.00003629080532414 0.00003629080532414 0.00003629080532414
0.00003645281784791 0.00003645281784791 0.00003645281784791
0.00003661483037168 0.00003661483037168 0.00003661483037168
0.00003677684289545 0.00003677684289545 0.00003677684289545
0.00003693885541922 0.00003693885541922 0.00003693885541922
0.00003710086794298 0.00003710086794298 0.00003710086794298
0.00003726288046675 0.00003726288046675 0.00003726288046675
0.00003742489299052 0.00003742489299052 0.00003742489299052
0.00003758690551429 0.00003758690551429 0.00003758690551429
0.00003774891803806 0.00003774891803806 0.00003774891803806
0.00003791093056183 0.00003791093056183 0.00003791093056183
0.00003807294308560 0.00003807294308560 0.00003807294308560
0.00003823495560936 0.00003823495560936 0.00003823495560936
0.00003839696813313 0.00003839696813313 0.00003839696813313
0.00003855898065690 0.00003855898065690 0.00003855898065690
0.00003872099318067 0.00003872099318067 0.00003872099318067
0.00003888300570444 0.00003888300570444 0.00003888300570444
0.00003904501822821 0.00003904501822821 0.00003904501822821
0.00003920703075197 0.00003920703075197 0.00003920703075197
0.00003936904327574 0.00003936904327574 0.00003936904327574
0.00003953105579951 0.00003953105579951 0.00003953105579951
0.00003969306832328 0.00003969306832328 0.00003969306832328
0.00003985508084705 0.00003985508084705 0.00003985508084705
0.00004001709337082 0.00004001709337082 0.00004001709337082
0.00004017910589459 0.00004017910589459 0.00004017910589459
0.00004034111841835 0.00004034111841835 0.00004034111841835
0.00004050313094212 0.00004050313094212 0.00004050313094212
0.00004066514346589 0.00004066514346589 0.00004066514346589
0.00004082715598966 0.00004082715598966 0.00004082715598966
0.00004098916851343 0.00004098916851343 0.00004098916851343
0.00004115118103720 0.00004115118103720 0.00004115118103720
0.00004131319356096 0.00004131319356096 0.00004131319356096
0.00004147520608473 0.00004147520608473 0.00004147520608473
0.00004163721860850 0.00004163721860850 0.00004163721860850
0.00004179923113227 0.00004179923113227 0.00004179923113227
0.00004196124365604 0.00004196124365604 0.00004196124365604
0.00004212325617981 0.00004212325617981 0.00004212325617981
0.00004228526870358 0.00004228526870358 0.00004228526870358
0.00004244728122734 0.00004244728122734 0.00004244728122734
0.00004260929375111 0.00004260929375111 0.00004260929375111
0.00004277130627488 0.00004277130627488 0.00004277130627488
0.00004293331879865 0.00004293331879865 0.00004293331879865
0.00004309533132242 0.00004309533132242 0.00004309533132242
0.00004325734384619 0.00004325734384619 0.00004325734384619
0.00004341935636996 0.00004341935636996 0.00004341935636996
0.00004358136889372 0.00004358136889372 0.00004358136889372
0.00004374338141749 0.00004374338141749 0.00004374338141749
0.00004390539394126 0.00004390539394126 0.00004390539394126
0.00004406740646503 0.00004406740646503 0.00004406740646503
0.00004422941898880 0.00004422941898880 0.00004422941898880
0.00004439143151257 0.00004439143151257 0.00004439143151257
0.00004455344403633 0.00004455344403633 0.00004455344403633
0.00004471545656010 0.00004471545656010 0.00004471545656010
0.00004487746908387 0.00004487746908387 0.00004487746908387
0.00004503948160764 0.00004503948160764 0.00004503948160764
0.00004520149413141 0.00004520149413141 0.00004520149413141
0.00004536350665518 0.00004536350665518 0.00004536350665518
0.00004552551917895 0.00004552551917895 0.00004552551917895
0.00004568753170271 0.00004568753170271 0.00004568753170271
0.00004584954422648 0.00004584954422648 0.00004584954422648
0.00004601155675025 0.00004601155675025 0.00004601155675025
0.00004617356927402 0.00004617356927402 0.00004617356927402
0.00004633558179779 0.00004633558179779 0.00004633558179779
0.00004649759432156 0.00004649759432156 0.00004649759432156
0.00004665960684533 0.00004665960684533 0.00004665960684533
0.00004682161936909 0.00004682161936909 0.00004682161936909
0.00004698363189286 0.00004698363189286 0.00004698363189286
0.00004714564441663 0.00004714564441663 0.00004714564441663
0.00004730765694040 0.00004730765694040 0.00004730765694040
0.00004746966946417 0.00004746966946417 0.00004746966946417
0.00004763168198794 0.00004763168198794 0.00004763168198794
0.00004779369451170 0.00004779369451170 0.00004779369451170
0.00004795570703547 0.00004795570703547 0.00004795570703547
0.00004811771955924 0.00004811771955924 0.00004811771955924
0.00004827973208301 0.00004827973208301 0.00004827973208301
0.00004844174460678 0.00004844174460678 0.00004844174460678
0.00004860375713055 0.00004860375713055 0.00004860375713055
0.00004876576965432 0.00004876576965432 0.00004876576965432
0.00004892778217808 0.00004892778217808 0.00004892778217808
0.00004908979470185 0.00004908979470185 0.00004908979470185
0.00004925180722562 0.00004925180722562 0.00004925180722562
0.00004941381974939 0.00004941381974939 0.00004941381974939
0.00004957583227316 0.00004957583227316 0.00004957583227316
0.00004973784479693 0.00004973784479693 0.00004973784479693
0.00004989985732069 0.00004989985732069 0.00004989985732069
0.00005006186984446 0.00005006186984446 0.00005006186984446
0.00005022388236823 0.00005022388236823 0.00005022388236823
0.00005038589489200 0.00005038589489200 0.00005038589489200
0.00005054790741577 0.00005054790741577 0.00005054790741577
0.00005070991993954 0.00005070991993954 0.00005070991993954
0.00005087193246331 0.00005087193246331 0.00005087193246331
0.00005103394498707 0.00005103394498707 0.00005103394498707
0.00005119595751084 0.00005119595751084 0.00005119595751084
0.00005135797003461 0.00005135797003461 0.00005135797003461
0.00005151998255838 0.00005151998255838 0.00005151998255838
0.00005168199508215 0.00005168199508215 0.00005168199508215
0.00005184400760592 0.00005184400760592 0.00005184400760592
0.00005200602012969 0.00005200602012969 0.00005200602012969
0.00005216803265345 0.00005216803265345 0.00005216803265345
0.00005233004517722 0.00005233004517722 0.00005233004517722
0.00005249205770099 0.00005249205770099 0.00005249205770099
0.00005265407022476 0.00005265407022476 0.00005265407022476
0.00005281608274853 0.00005281608274853 0.00005281608274853
0.00005297809527230 0.00005297809527230 0.00005297809527230
0.00005314010779606 0.00005314010779606 0.00005314010779606
0.00005330212031983 0.00005330212031983 0.00005330212031983
0.00005346413284360 0.00005346413284360 0.00005346413284360
0.00005362614536737 0.00005362614536737 0.00005362614536737
0.00005378815789114 0.00005378815789114 0.00005378815789114
0.00005395017041491 0.00005395017041491 0.00005395017041491
0.00005411218293868 0.00005411218293868 0.00005411218293868
0.00005427419546244 0.00005427419546244 0.00005427419546244
0.00005443620798621 0.00005443620798621 0.00005443620798621
0.00005459822050998 0.00005459822050998 0.00005459822050998
0.00005476023303375 0.00005476023303375 0.00005476023303375
0.00005492224555752 0.00005492224555752 0.00005492224555752
0.00005508425808129 0.00005508425808129 0.00005508425808129
0.00005524627060506 0.00005524627060506 0.00005524627060506
0.00005540828312882 0.00005540828312882 0.00005540828312882
0.00005557029565259 0.00005557029565259 0.00005557029565259
0.00005573230817636 0.00005573230817636 0.00005573230817636
0.00005589432070013 0.00005589432070013 0.00005589432070013
0.00005605633322390 0.00005605633322390 0.00005605633322390
0.00005621834574767 0.00005621834574767 0.00005621834574767
0.00005638035827143 0.00005638035827143 0.00005638035827143
0.00005654237079520 0.00005654237079520 0.00005654237079520
0.00005670438331897 0.00005670438331897 0.00005670438331897
0.00005686639584274 0.00005686639584274 0.00005686639584274
0.00005702840836651 0.00005702840836651 0.00005702840836651
0.00005719042089028 0.00005719042089028 0.00005719042089028
0.00005735243341405 0.00005735243341405 0.00005735243341405
0.00005751444593781 0.00005751444593781 0.00005751444593781
0.00005767645846158 0.00005767645846158 0.00005767645846158
0.00005783847098535 0.00005783847098535 0.00005783847098535
0.00005800048350912 0.00005800048350912 0.00005800048350912
0.00005816249603289 0.00005816249603289 0.00005816249603289
0.00005832450855666 0.00005832450855666 0.00005832450855666
0.00005848652108042 0.00005848652108042 0.00005848652108042
0.00005864853360419 0.00005864853360419 0.00005864853360419
0.00005881054612796 0.00005881054612796 0.00005881054612796
0.00005897255865173 0.00005897255865173 0.00005897255865173
0.00005913457117550 0.00005913457117550 0.00005913457117550
0.00005929658369927 0.00005929658369927 0.00005929658369927
0.00005945859622304 0.00005945859622304 0.00005945859622304
0.00005962060874680 0.00005962060874680 0.00005962060874680
0.00005978262127057 0.00005978262127057 0.00005978262127057
0.00005994463379434 0.00005994463379434 0.00005994463379434
0.00006010664631811 0.00006010664631811 0.00006010664631811
0.00006026865884188 0.00006026865884188 0.00006026865884188
0.00006043067136565 0.00006043067136565 0.00006043067136565
0.00006059268388942 0.00006059268388942 0.00006059268388942
0.00006075469641318 0.00006075469641318 0.00006075469641318
0.00006091670893695 0.00006091670893695 0.00006091670893695
0.00006107872146072 0.00006107872146072 0.00006107872146072
0.00006124073398449 0.00006124073398449 0.00006124073398449
0.00006140274650826 0.00006140274650826 0.00006140274650826
0.00006156475903203 0.00006156475903203 0.00006156475903203
0.00006172677155579 0.00006172677155579 0.00006172677155579
0.00006188878407956 0.00006188878407956 0.00006188878407956
0.00006205079660333 0.00006205079660333 0.00006205079660333
0.00006221280912710 0.00006221280912710 0.00006221280912710
0.00006237482165087 0.00006237482165087 0.00006237482165087
0.00006253683417464 0.00006253683417464 0.00006253683417464
0.00006269884669841 0.00006269884669841 0.00006269884669841
0.00006286085922217 0.00006286085922217 0.00006286085922217
0.00006302287174594 0.00006302287174594 0.00006302287174594
0.00006318488426971 0.00006318488426971 0.00006318488426971
0.00006334689679348 0.00006334689679348 0.00006334689679348
0.00006350890931725 0.00006350890931725 0.00006350890931725
0.00006367092184102 0.00006367092184102 0.00006367092184102
0.00006383293436479 0.00006383293436479 0.00006383293436479
0.00006399494688855 0.00006399494688855 0.00006399494688855
0.00006415695941232 0.00006415695941232 0.00006415695941232
