DaVinci_HLG_1D_LUT_NikonZ8/Linear_to_HLG_1D_65536_NikonZ8.cube
TITLE "Linear to Nikon Z8 HLG - 1D 65536"
LUT_1D_SIZE 65536
LUT_1D_INPUT_RANGE 0.00000000000000000 2.40173865203029990

0.00000000000000000 0.00000000000000000 0.00000000000000000
0.00345168020967205 0.00345168020967205 0.00345168020967205
0.00690336041934410 0.00690336041934410 0.00690336041934410
0.01035504062901616 0.01035504062901616 0.01035504062901616
0.01380672083868821 0.01380672083868821 0.01380672083868821
0.01725840104836026 0.01725840104836026 0.01725840104836026
0.02071008125803232 0.02071008125803232 0.02071008125803232
0.02416176146770437 0.02416176146770437 0.02416176146770437
0.02761344167737642 0.02761344167737642 0.02761344167737642
0.03106512188704848 0.03106512188704848 0.03106512188704848
0.03315788715289584 0.03315788715289584 0.03315788715289584
0.03477628543258454 0.03477628543258454 0.03477628543258454
0.03632264550570359 0.03632264550570359 0.03632264550570359
0.03780580807994226 0.03780580807994226 0.03780580807994226
0.03923294116710911 0.03923294116710911 0.03923294116710911
0.04060995223669023 0.04060995223669023 0.04060995223669023
0.04194177832079464 0.04194177832079464 0.04194177832079464
0.04323259553571931 0.04323259553571931 0.04323259553571931
0.04448597379848524 0.04448597379848524 0.04448597379848524
0.04570499330318223 0.04570499330318223 0.04570499330318223
0.04689233371126190 0.04689233371126190 0.04689233371126190
0.04805034348402483 0.04805034348402483 0.04805034348402483
0.04918109450771896 0.04918109450771896 0.04918109450771896
0.05028642565366524 0.05028642565366524 0.05028642565366524
0.05136797789543616 0.05136797789543616 0.05136797789543616
0.05242722290099331 0.05242722290099331 0.05242722290099331
0.05346548652312869 0.05346548652312869 0.05346548652312869
0.05448396825855541 0.05448396825855541 0.05448396825855541
0.05548375749031143 0.05548375749031143 0.05548375749031143
0.05646584714044506 0.05646584714044506 0.05646584714044506
0.05743114522045093 0.05743114522045093 0.05743114522045093
0.05838048466205931 0.05838048466205931 0.05838048466205931
0.05931463173131364 0.05931463173131364 0.05931463173131364
0.06023429326775384 0.06023429326775384 0.06023429326775384
0.06114012294320478 0.06114012294320478 0.06114012294320478
0.06203272669772473 0.06203272669772473 0.06203272669772473
0.06291266748119198 0.06291266748119198 0.06291266748119198
0.06378046940595096 0.06378046940595096 0.06378046940595096
0.06463662139753179 0.06463662139753179 0.06463662139753179
0.06548158041565798 0.06548158041565798 0.06548158041565798
0.06631577430579168 0.06631577430579168 0.06631577430579168
0.06713960433172894 0.06713960433172894 0.06713960433172894
0.06795344743179359 0.06795344743179359 0.06795344743179359
0.06875765823462833 0.06875765823462833 0.06875765823462833
0.06955257086516908 0.06955257086516908 0.06955257086516908
0.07033850056689285 0.07033850056689285 0.07033850056689285
0.07111574516267971 0.07111574516267971 0.07111574516267971
0.07188458637348914 0.07188458637348914 0.07188458637348914
0.07264529101140718 0.07264529101140718 0.07264529101140718
0.07339811206139062 0.07339811206139062 0.07339811206139062
0.07414328966414206 0.07414328966414206 0.07414328966414206
0.07488105201094128 0.07488105201094128 0.07488105201094128
0.07561161615988451 0.07561161615988451 0.07561161615988451
0.07633518878180709 0.07633518878180709 0.07633518878180709
0.07705196684315427 0.07705196684315427 0.07705196684315427
0.07776213823219474 0.07776213823219474 0.07776213823219474
0.07846588233421822 0.07846588233421822 0.07846588233421822
0.07916337056070691 0.07916337056070691 0.07916337056070691
0.07985476683690346 0.07985476683690346 0.07985476683690346
0.08054022805170490 0.08054022805170490 0.08054022805170490
0.08121990447338047 0.08121990447338047 0.08121990447338047
0.08189394013423378 0.08189394013423378 0.08189394013423378
0.08256247318699873 0.08256247318699873 0.08256247318699873
0.08322563623546714 0.08322563623546714 0.08322563623546714
0.08388355664158928 0.08388355664158928 0.08388355664158928
0.08453635681106171 0.08453635681106171 0.08453635681106171
0.08518415445921590 0.08518415445921590 0.08518415445921590
0.08582706285884407 0.08582706285884407 0.08582706285884407
0.08646519107143863 0.08646519107143863 0.08646519107143863
0.08709864416318318 0.08709864416318318 0.08709864416318318
0.08772752340690589 0.08772752340690589 0.08772752340690589
0.08835192647109422 0.08835192647109422 0.08835192647109422
0.08897194759697048 0.08897194759697048 0.08897194759697048
0.08958767776453677 0.08958767776453677 0.08958767776453677
0.09019920484841810 0.09019920484841810 0.09019920484841810
0.09080661376425900 0.09080661376425900 0.09080661376425900
0.09140998660636446 0.09140998660636446 0.09140998660636446
0.09200940277721699 0.09200940277721699 0.09200940277721699
0.09260493910944796 0.09260493910944796 0.09260493910944796
0.09319666998079373 0.09319666998079373 0.09319666998079373
0.09378466742252382 0.09378466742252382 0.09378466742252382
0.09436900122178796 0.09436900122178796 0.09436900122178796
0.09494973901829447 0.09494973901829447 0.09494973901829447
0.09552694639569849 0.09552694639569849 0.09552694639569849
0.09610068696804966 0.09610068696804966 0.09610068696804966
0.09667102246162232 0.09667102246162232 0.09667102246162232
0.09723801279242550 0.09723801279242550 0.09723801279242550
0.09780171613966863 0.09780171613966863 0.09780171613966863
0.09836218901543792 0.09836218901543792 0.09836218901543792
0.09891948633081935 0.09891948633081935 0.09891948633081935
0.09947366145868751 0.09947366145868751 0.09947366145868751
0.10002476629336352 0.10002476629336352 0.10002476629336352
0.10057285130733049 0.10057285130733049 0.10057285130733049
0.10111796560518227 0.10111796560518227 0.10111796560518227
0.10166015697496854 0.10166015697496854 0.10166015697496854
0.10219947193708810 0.10219947193708810 0.10219947193708810
0.10273595579087236 0.10273595579087236 0.10273595579087236
0.10326965265899028 0.10326965265899028 0.10326965265899028
0.10380060552979886 0.10380060552979886 0.10380060552979886
0.10432885629775364 0.10432885629775364 0.10432885629775364
0.10485444580198661 0.10485444580198661 0.10485444580198661
0.10537741386315269 0.10537741386315269 0.10537741386315269
0.10589779931863827 0.10589779931863827 0.10589779931863827
0.10641564005622013 0.10641564005622013 0.10641564005622013
0.10693097304625737 0.10693097304625737 0.10693097304625737
0.10744383437249358 0.10744383437249358 0.10744383437249358
0.10795425926154210 0.10795425926154210 0.10795425926154210
0.10846228211112226 0.10846228211112226 0.10846228211112226
0.10896793651711081 0.10896793651711081 0.10896793651711081
0.10947125529946894 0.10947125529946894 0.10947125529946894
0.10997227052710117 0.10997227052710117 0.10997227052710117
0.11047101354169943 0.11047101354169943 0.11047101354169943
0.11096751498062284 0.11096751498062284 0.11096751498062284
0.11146180479886002 0.11146180479886002 0.11146180479886002
0.11195391229011871 0.11195391229011871 0.11195391229011871
0.11244386610708479 0.11244386610708479 0.11244386610708479
0.11293169428089010 0.11293169428089010 0.11293169428089010
0.11341742423982677 0.11341742423982677 0.11341742423982677
0.11390108282734306 0.11390108282734306 0.11390108282734306
0.11438269631935453 0.11438269631935453 0.11438269631935453
0.11486229044090186 0.11486229044090186 0.11486229044090186
0.11533989038218527 0.11533989038218527 0.11533989038218527
0.11581552081400373 0.11581552081400373 0.11581552081400373
0.11628920590262602 0.11628920590262602 0.11628920590262602
0.11676096932411863 0.11676096932411863 0.11676096932411863
0.11723083427815477 0.11723083427815477 0.11723083427815477
0.11769882350132732 0.11769882350132732 0.11769882350132732
0.11816495927998713 0.11816495927998713 0.11816495927998713
0.11862926346262730 0.11862926346262730 0.11862926346262730
0.11909175747183286 0.11909175747183286 0.11909175747183286
0.11955246231581461 0.11955246231581461 0.11955246231581461
0.12001139859954425 0.12001139859954425 0.12001139859954425
0.12046858653550771 0.12046858653550771 0.12046858653550771
0.12092404595409270 0.12092404595409270 0.12092404595409270
0.12137779631362541 0.12137779631362541 0.12137779631362541
0.12182985671007071 0.12182985671007071 0.12182985671007071
0.12228024588640955 0.12228024588640955 0.12228024588640955
0.12272898224170684 0.12272898224170684 0.12272898224170684
0.12317608383988191 0.12317608383988191 0.12317608383988191
0.12362156841819323 0.12362156841819323 0.12362156841819323
0.12406545339544950 0.12406545339544950 0.12406545339544950
0.12450775587995658 0.12450775587995658 0.12450775587995658
0.12494849267721191 0.12494849267721191 0.12494849267721191
0.12538768029735498 0.12538768029735498 0.12538768029735498
0.12582533496238393 0.12582533496238393 0.12582533496238393
0.12626147261314727 0.12626147261314727 0.12626147261314727
0.12669610891611846 0.12669610891611846 0.12669610891611846
0.12712925926996257 0.12712925926996257 0.12712925926996257
0.12756093881190192 0.12756093881190192 0.12756093881190192
0.12799116242388847 0.12799116242388847 0.12799116242388847
0.12841994473859045 0.12841994473859045 0.12841994473859045
0.12884730014519916 0.12884730014519916 0.12884730014519916
0.12927324279506358 0.12927324279506358 0.12927324279506358
0.12969778660715792 0.12969778660715792 0.12969778660715792
0.13012094527338897 0.13012094527338897 0.13012094527338897
0.13054273226374843 0.13054273226374843 0.13054273226374843
0.13096316083131596 0.13096316083131596 0.13096316083131596
0.13138224401711804 0.13138224401711804 0.13138224401711804
0.13179999465484799 0.13179999465484799 0.13179999465484799
0.13221642537545167 0.13221642537545167 0.13221642537545167
0.13263154861158338 0.13263154861158338 0.13263154861158338
0.13304537660193688 0.13304537660193688 0.13304537660193688
0.13345792139545570 0.13345792139545570 0.13345792139545570
0.13386919485542614 0.13386919485542614 0.13386919485542614
0.13427920866345788 0.13427920866345788 0.13427920866345788
0.13468797432335552 0.13468797432335552 0.13468797432335552
0.13509550316488445 0.13509550316488445 0.13509550316488445
0.13550180634743481 0.13550180634743481 0.13550180634743481
0.13590689486358717 0.13590689486358717 0.13590689486358717
0.13631077954258261 0.13631077954258261 0.13631077954258261
0.13671347105370038 0.13671347105370038 0.13671347105370038
0.13711497990954669 0.13711497990954669 0.13711497990954669
0.13751531646925663 0.13751531646925663 0.13751531646925663
0.13791449094161290 0.13791449094161290 0.13791449094161290
0.13831251338808301 0.13831251338808301 0.13831251338808301
0.13870939372577856 0.13870939372577856 0.13870939372577856
0.13910514173033817 0.13910514173033817 0.13910514173033817
0.13949976703873698 0.13949976703873698 0.13949976703873698
0.13989327915202471 0.13989327915202471 0.13989327915202471
0.14028568743799466 0.14028568743799466 0.14028568743799466
0.14067700113378570 0.14067700113378570 0.14067700113378570
0.14106722934841942 0.14106722934841942 0.14106722934841942
0.14145638106527389 0.14145638106527389 0.14145638106527389
0.14184446514449692 0.14184446514449692 0.14184446514449692
0.14223149032535942 0.14223149032535942 0.14223149032535942
0.14261746522855198 0.14261746522855198 0.14261746522855198
0.14300239835842490 0.14300239835842490 0.14300239835842490
0.14338629810517486 0.14338629810517486 0.14338629810517486
0.14376917274697829 0.14376917274697829 0.14376917274697829
0.14415103045207447 0.14415103045207447 0.14415103045207447
0.14453187928079853 0.14453187928079853 0.14453187928079853
0.14491172718756665 0.14491172718756665 0.14491172718756665
0.14529058202281439 0.14529058202281439 0.14529058202281439
0.14566845153488991 0.14566845153488991 0.14566845153488991
0.14604534337190281 0.14604534337190281 0.14604534337190281
0.14642126508353015 0.14642126508353015 0.14642126508353015
0.14679622412278123 0.14679622412278123 0.14679622412278123
0.14717022784772144 0.14717022784772144 0.14717022784772144
0.14754328352315688 0.14754328352315688 0.14754328352315688
0.14791539832228109 0.14791539832228109 0.14791539832228109
0.14828657932828410 0.14828657932828410 0.14828657932828410
0.14865683353592568 0.14865683353592568 0.14865683353592568
0.14902616785307315 0.14902616785307315 0.14902616785307315
0.14939458910220527 0.14939458910220527 0.14939458910220527
0.14976210402188256 0.14976210402188256 0.14976210402188256
0.15012871926818527 0.15012871926818527 0.15012871926818527
0.15049444141612012 0.15049444141612012 0.15049444141612012
0.15085927696099574 0.15085927696099574 0.15085927696099574
0.15122323231976903 0.15122323231976903 0.15122323231976903
0.15158631383236171 0.15158631383236171 0.15158631383236171
0.15194852776294895 0.15194852776294895 0.15194852776294895
0.15230988030122042 0.15230988030122042 0.15230988030122042
0.15267037756361415 0.15267037756361415 0.15267037756361415
0.15303002559452483 0.15303002559452483 0.15303002559452483
0.15338883036748582 0.15338883036748582 0.15338883036748582
0.15374679778632711 0.15374679778632711 0.15374679778632711
0.15410393368630854 0.15410393368630854 0.15410393368630854
0.15446024383522960 0.15446024383522960 0.15446024383522960
0.15481573393451653 0.15481573393451653 0.15481573393451653
0.15517040962028625 0.15517040962028625 0.15517040962028625
0.15552427646438949 0.15552427646438949 0.15552427646438949
0.15587733997543152 0.15587733997543152 0.15587733997543152
0.15622960559977317 0.15622960559977317 0.15622960559977317
0.15658107872251073 0.15658107872251073 0.15658107872251073
0.15693176466843642 0.15693176466843642 0.15693176466843642
0.15728166870297991 0.15728166870297991 0.15728166870297991
0.15763079603313035 0.15763079603313035 0.15763079603313035
0.15797915180834071 0.15797915180834071 0.15797915180834071
0.15832674112141382 0.15832674112141382 0.15832674112141382
0.15867356900937094 0.15867356900937094 0.15867356900937094
0.15901964045430370 0.15901964045430370 0.15901964045430370
0.15936496038420880 0.15936496038420880 0.15936496038420880
0.15970953367380686 0.15970953367380686 0.15970953367380686
0.16005336514534543 0.16005336514534543 0.16005336514534543
0.16039645956938603 0.16039645956938603 0.16039645956938603
0.16073882166557679 0.16073882166557679 0.16073882166557679
0.16108045610340979 0.16108045610340979 0.16108045610340979
0.16142136750296396 0.16142136750296396 0.16142136750296396
0.16176156043563428 0.16176156043563428 0.16176156043563428
0.16210103942484694 0.16210103942484694 0.16210103942484694
0.16243980894676094 0.16243980894676094 0.16243980894676094
0.16277787343095687 0.16277787343095687 0.16277787343095687
0.16311523726111252 0.16311523726111252 0.16311523726111252
0.16345190477566618 0.16345190477566618 0.16345190477566618
0.16378788026846755 0.16378788026846755 0.16378788026846755
0.16412316798941667 0.16412316798941667 0.16412316798941667
0.16445777214509111 0.16445777214509111 0.16445777214509111
0.16479169689936174 0.16479169689936174 0.16479169689936174
0.16512494637399747 0.16512494637399747 0.16512494637399747
0.16545752464925839 0.16545752464925839 0.16545752464925839
0.16578943576447919 0.16578943576447919 0.16578943576447919
0.16612068371864108 0.16612068371864108 0.16612068371864108
0.16645127247093428 0.16645127247093428 0.16645127247093428
0.16678120594130991 0.16678120594130991 0.16678120594130991
0.16711048801102232 0.16711048801102232 0.16711048801102232
0.16743912252316201 0.16743912252316201 0.16743912252316201
0.16776711328317859 0.16776711328317859 0.16776711328317859
0.16809446405939518 0.16809446405939518 0.16809446405939518
0.16842117858351338 0.16842117858351338 0.16842117858351338
0.16874726055110978 0.16874726055110978 0.16874726055110978
0.16907271362212339 0.16907271362212339 0.16907271362212339
0.16939754142133517 0.16939754142133517 0.16939754142133517
0.16972174753883895 0.16972174753883895 0.16972174753883895
0.17004533553050435 0.17004533553050435 0.17004533553050435
0.17036830891843183 0.17036830891843183 0.17036830891843183
0.17069067119140002 0.17069067119140002 0.17069067119140002
0.17101242580530529 0.17101242580530529 0.17101242580530529
0.17133357618359416 0.17133357618359416 0.17133357618359416
0.17165412571768812 0.17165412571768812 0.17165412571768812
0.17197407776740165 0.17197407776740165 0.17197407776740165
0.17229343566135283 0.17229343566135283 0.17229343566135283
0.17261220269736766 0.17261220269736766 0.17261220269736766
0.17293038214287726 0.17293038214287726 0.17293038214287726
0.17324797723530852 0.17324797723530852 0.17324797723530852
0.17356499118246854 0.17356499118246854 0.17356499118246854
0.17388142716292276 0.17388142716292276 0.17388142716292276
0.17419728832636641 0.17419728832636641 0.17419728832636641
0.17451257779399068 0.17451257779399068 0.17451257779399068
0.17482729865884233 0.17482729865884233 0.17482729865884233
0.17514145398617792 0.17514145398617792 0.17514145398617792
0.17545504681381183 0.17545504681381183 0.17545504681381183
0.17576808015245918 0.17576808015245918 0.17576808015245918
0.17608055698607306 0.17608055698607306 0.17608055698607306
0.17639248027217641 0.17639248027217641 0.17639248027217641
0.17670385294218843 0.17670385294218843 0.17670385294218843
0.17701467790174627 0.17701467790174627 0.17701467790174627
0.17732495803102111 0.17732495803102111 0.17732495803102111
0.17763469618502972 0.17763469618502972 0.17763469618502972
0.17794389519394091 0.17794389519394091 0.17794389519394091
0.17825255786337724 0.17825255786337724 0.17825255786337724
0.17856068697471197 0.17856068697471197 0.17856068697471197
0.17886828528536156 0.17886828528536156 0.17886828528536156
0.17917535552907354 0.17917535552907354 0.17917535552907354
0.17948190041621001 0.17948190041621001 0.17948190041621001
0.17978792263402660 0.17978792263402660 0.17978792263402660
0.18009342484694757 0.18009342484694757 0.18009342484694757
0.18039840969683621 0.18039840969683621 0.18039840969683621
0.18070287980326155 0.18070287980326155 0.18070287980326155
0.18100683776376078 0.18100683776376078 0.18100683776376078
0.18131028615409778 0.18131028615409778 0.18131028615409778
0.18161322752851800 0.18161322752851800 0.18161322752851800
0.18191566441999893 0.18191566441999893 0.18191566441999893
0.18221759934049753 0.18221759934049753 0.18221759934049753
0.18251903478119344 0.18251903478119344 0.18251903478119344
0.18281997321272891 0.18281997321272891 0.18281997321272891
0.18312041708544499 0.18312041708544499 0.18312041708544499
0.18342036882961429 0.18342036882961429 0.18342036882961429
0.18371983085567045 0.18371983085567045 0.18371983085567045
0.18401880555443398 0.18401880555443398 0.18401880555443398
0.18431729529733504 0.18431729529733504 0.18431729529733504
0.18461530243663285 0.18461530243663285 0.18461530243663285
0.18491282930563210 0.18491282930563210 0.18491282930563210
0.18520987821889592 0.18520987821889592 0.18520987821889592
0.18550645147245601 0.18550645147245601 0.18550645147245601
0.18580255134401974 0.18580255134401974 0.18580255134401974
0.18609818009317422 0.18609818009317422 0.18609818009317422
0.18639333996158747 0.18639333996158747 0.18639333996158747
0.18668803317320676 0.18668803317320676 0.18668803317320676
0.18698226193445400 0.18698226193445400 0.18698226193445400
0.18727602843441862 0.18727602843441862 0.18727602843441862
0.18756933484504762 0.18756933484504762 0.18756933484504762
0.18786218332133270 0.18786218332133270 0.18786218332133270
0.18815457600149518 0.18815457600149518 0.18815457600149518
0.18844651500716814 0.18844651500716814 0.18844651500716814
0.18873800244357591 0.18873800244357591 0.18873800244357591
0.18902904039971127 0.18902904039971127 0.18902904039971127
0.18931963094851018 0.18931963094851018 0.18931963094851018
0.18960977614702390 0.18960977614702390 0.18960977614702390
0.18989947803658894 0.18989947803658894 0.18989947803658894
0.19018873864299474 0.19018873864299474 0.19018873864299474
0.19047755997664861 0.19047755997664861 0.19047755997664861
0.19076594403273922 0.19076594403273922 0.19076594403273922
0.19105389279139698 0.19105389279139698 0.19105389279139698
0.19134140821785289 0.19134140821785289 0.19134140821785289
0.19162849226259504 0.19162849226259504 0.19162849226259504
0.19191514686152278 0.19191514686152278 0.19191514686152278
0.19220137393609929 0.19220137393609929 0.19220137393609929
0.19248717539350171 0.19248717539350171 0.19248717539350171
0.19277255312676936 0.19277255312676936 0.19277255312676936
0.19305750901495006 0.19305750901495006 0.19305750901495006
0.19334204492324464 0.19334204492324464 0.19334204492324464
0.19362616270314909 0.19362616270314909 0.19362616270314909
0.19390986419259537 0.19390986419259537 0.19390986419259537
0.19419315121608999 0.19419315121608999 0.19419315121608999
0.19447602558485100 0.19447602558485100 0.19447602558485100
0.19475848909694291 0.19475848909694291 0.19475848909694291
0.19504054353741032 0.19504054353741032 0.19504054353741032
0.19532219067840928 0.19532219067840928 0.19532219067840928
0.19560343227933727 0.19560343227933727 0.19560343227933727
0.19588427008696155 0.19588427008696155 0.19588427008696155
0.19616470583554554 0.19616470583554554 0.19616470583554554
0.19644474124697392 0.19644474124697392 0.19644474124697392
0.19672437803087583 0.19672437803087583 0.19672437803087583
0.19700361788474691 0.19700361788474691 0.19700361788474691
0.19728246249406911 0.19728246249406911 0.19728246249406911
0.19756091353242980 0.19756091353242980 0.19756091353242980
0.19783897266163869 0.19783897266163869 0.19783897266163869
0.19811664153184366 0.19811664153184366 0.19811664153184366
0.19839392178164497 0.19839392178164497 0.19839392178164497
0.19867081503820805 0.19867081503820805 0.19867081503820805
0.19894732291737502 0.19894732291737502 0.19894732291737502
0.19922344702377459 0.19922344702377459 0.19922344702377459
0.19949918895093066 0.19949918895093066 0.19949918895093066
0.19977455028136978 0.19977455028136978 0.19977455028136978
0.20004953258672703 0.20004953258672703 0.20004953258672703
0.20032413742785063 0.20032413742785063 0.20032413742785063
0.20059836635490527 0.20059836635490527 0.20059836635490527
0.20087222090747445 0.20087222090747445 0.20087222090747445
0.20114570261466097 0.20114570261466097 0.20114570261466097
0.20141881299518685 0.20141881299518685 0.20141881299518685
0.20169155355749152 0.20169155355749152 0.20169155355749152
0.20196392579982914 0.20196392579982914 0.20196392579982914
0.20223593121036454 0.20223593121036454 0.20223593121036454
0.20250757126726823 0.20250757126726823 0.20250757126726823
0.20277884743880989 0.20277884743880989 0.20277884743880989
0.20304976118345117 0.20304976118345117 0.20304976118345117
0.20332031394993708 0.20332031394993708 0.20332031394993708
0.20359050717738633 0.20359050717738633 0.20359050717738633
0.20386034229538075 0.20386034229538075 0.20386034229538075
0.20412982072405350 0.20412982072405350 0.20412982072405350
0.20439894387417623 0.20439894387417623 0.20439894387417623
0.20466771314724522 0.20466771314724522 0.20466771314724522
0.20493612993556670 0.20493612993556670 0.20493612993556670
0.20520419562234077 0.20520419562234077 0.20520419562234077
0.20547191158174472 0.20547191158174472 0.20547191158174472
0.20573927917901513 0.20573927917901513 0.20573927917901513
0.20600629977052923 0.20600629977052923 0.20600629977052923
0.20627297470388495 0.20627297470388495 0.20627297470388495
0.20653930531798054 0.20653930531798054 0.20653930531798054
0.20680529294309274 0.20680529294309274 0.20680529294309274
0.20707093890095446 0.20707093890095446 0.20707093890095446
0.20733624450483143 0.20733624450483143 0.20733624450483143
0.20760121105959775 0.20760121105959775 0.20760121105959775
0.20786583986181104 0.20786583986181104 0.20786583986181104
0.20813013219978621 0.20813013219978621 0.20813013219978621
0.20839408935366882 0.20839408935366882 0.20839408935366882
0.20865771259550728 0.20865771259550728 0.20865771259550728
0.20892100318932452 0.20892100318932452 0.20892100318932452
