DaVinci_HLG_1D_LUT_LinToe/HLG_to_Linear_1D_65536_LinToe.cube
TITLE "HLG to Linear Scene E - 1D 65536 LinToe"
LUT_1D_SIZE 65536
DOMAIN_MIN 0.00000000000000000 0.00000000000000000 0.00000000000000000
DOMAIN_MAX 1.00000000000000000 1.00000000000000000 1.00000000000000000

0.00000000000000000 0.00000000000000000 0.00000000000000000
0.00000003441354537 0.00000003441354537 0.00000003441354537
0.00000006882709073 0.00000006882709073 0.00000006882709073
0.00000010324063610 0.00000010324063610 0.00000010324063610
0.00000013765418147 0.00000013765418147 0.00000013765418147
0.00000017206772683 0.00000017206772683 0.00000017206772683
0.00000020648127220 0.00000020648127220 0.00000020648127220
0.00000024089481757 0.00000024089481757 0.00000024089481757
0.00000027530836293 0.00000027530836293 0.00000027530836293
0.00000030972190830 0.00000030972190830 0.00000030972190830
0.00000034413545367 0.00000034413545367 0.00000034413545367
0.00000037854899903 0.00000037854899903 0.00000037854899903
0.00000041296254440 0.00000041296254440 0.00000041296254440
0.00000044737608977 0.00000044737608977 0.00000044737608977
0.00000048178963513 0.00000048178963513 0.00000048178963513
0.00000051620318050 0.00000051620318050 0.00000051620318050
0.00000055061672587 0.00000055061672587 0.00000055061672587
0.00000058503027123 0.00000058503027123 0.00000058503027123
0.00000061944381660 0.00000061944381660 0.00000061944381660
0.00000065385736196 0.00000065385736196 0.00000065385736196
0.00000068827090733 0.00000068827090733 0.00000068827090733
0.00000072268445270 0.00000072268445270 0.00000072268445270
0.00000075709799806 0.00000075709799806 0.00000075709799806
0.00000079151154343 0.00000079151154343 0.00000079151154343
0.00000082592508880 0.00000082592508880 0.00000082592508880
0.00000086033863416 0.00000086033863416 0.00000086033863416
0.00000089475217953 0.00000089475217953 0.00000089475217953
0.00000092916572490 0.00000092916572490 0.00000092916572490
0.00000096357927026 0.00000096357927026 0.00000096357927026
0.00000099799281563 0.00000099799281563 0.00000099799281563
0.00000103240636100 0.00000103240636100 0.00000103240636100
0.00000106681990636 0.00000106681990636 0.00000106681990636
0.00000110123345173 0.00000110123345173 0.00000110123345173
0.00000113564699710 0.00000113564699710 0.00000113564699710
0.00000117006054246 0.00000117006054246 0.00000117006054246
0.00000120447408783 0.00000120447408783 0.00000120447408783
0.00000123888763320 0.00000123888763320 0.00000123888763320
0.00000127330117856 0.00000127330117856 0.00000127330117856
0.00000130771472393 0.00000130771472393 0.00000130771472393
0.00000134212826930 0.00000134212826930 0.00000134212826930
0.00000137654181466 0.00000137654181466 0.00000137654181466
0.00000141095536003 0.00000141095536003 0.00000141095536003
0.00000144536890540 0.00000144536890540 0.00000144536890540
0.00000147978245076 0.00000147978245076 0.00000147978245076
0.00000151419599613 0.00000151419599613 0.00000151419599613
0.00000154860954150 0.00000154860954150 0.00000154860954150
0.00000158302308686 0.00000158302308686 0.00000158302308686
0.00000161743663223 0.00000161743663223 0.00000161743663223
0.00000165185017760 0.00000165185017760 0.00000165185017760
0.00000168626372296 0.00000168626372296 0.00000168626372296
0.00000172067726833 0.00000172067726833 0.00000172067726833
0.00000175509081369 0.00000175509081369 0.00000175509081369
0.00000178950435906 0.00000178950435906 0.00000178950435906
0.00000182391790443 0.00000182391790443 0.00000182391790443
0.00000185833144979 0.00000185833144979 0.00000185833144979
0.00000189274499516 0.00000189274499516 0.00000189274499516
0.00000192715854053 0.00000192715854053 0.00000192715854053
0.00000196157208589 0.00000196157208589 0.00000196157208589
0.00000199598563126 0.00000199598563126 0.00000199598563126
0.00000203039917663 0.00000203039917663 0.00000203039917663
0.00000206481272199 0.00000206481272199 0.00000206481272199
0.00000209922626736 0.00000209922626736 0.00000209922626736
0.00000213363981273 0.00000213363981273 0.00000213363981273
0.00000216805335809 0.00000216805335809 0.00000216805335809
0.00000220246690346 0.00000220246690346 0.00000220246690346
0.00000223688044883 0.00000223688044883 0.00000223688044883
0.00000227129399419 0.00000227129399419 0.00000227129399419
0.00000230570753956 0.00000230570753956 0.00000230570753956
0.00000234012108493 0.00000234012108493 0.00000234012108493
0.00000237453463029 0.00000237453463029 0.00000237453463029
0.00000240894817566 0.00000240894817566 0.00000240894817566
0.00000244336172103 0.00000244336172103 0.00000244336172103
0.00000247777526639 0.00000247777526639 0.00000247777526639
0.00000251218881176 0.00000251218881176 0.00000251218881176
0.00000254660235713 0.00000254660235713 0.00000254660235713
0.00000258101590249 0.00000258101590249 0.00000258101590249
0.00000261542944786 0.00000261542944786 0.00000261542944786
0.00000264984299323 0.00000264984299323 0.00000264984299323
0.00000268425653859 0.00000268425653859 0.00000268425653859
0.00000271867008396 0.00000271867008396 0.00000271867008396
0.00000275308362933 0.00000275308362933 0.00000275308362933
0.00000278749717469 0.00000278749717469 0.00000278749717469
0.00000282191072006 0.00000282191072006 0.00000282191072006
0.00000285632426542 0.00000285632426542 0.00000285632426542
0.00000289073781079 0.00000289073781079 0.00000289073781079
0.00000292515135616 0.00000292515135616 0.00000292515135616
0.00000295956490152 0.00000295956490152 0.00000295956490152
0.00000299397844689 0.00000299397844689 0.00000299397844689
0.00000302839199226 0.00000302839199226 0.00000302839199226
0.00000306280553762 0.00000306280553762 0.00000306280553762
0.00000309721908299 0.00000309721908299 0.00000309721908299
0.00000313163262836 0.00000313163262836 0.00000313163262836
0.00000316604617372 0.00000316604617372 0.00000316604617372
0.00000320045971909 0.00000320045971909 0.00000320045971909
0.00000323487326446 0.00000323487326446 0.00000323487326446
0.00000326928680982 0.00000326928680982 0.00000326928680982
0.00000330370035519 0.00000330370035519 0.00000330370035519
0.00000333811390056 0.00000333811390056 0.00000333811390056
0.00000337252744592 0.00000337252744592 0.00000337252744592
0.00000340694099129 0.00000340694099129 0.00000340694099129
0.00000344135453666 0.00000344135453666 0.00000344135453666
0.00000347576808202 0.00000347576808202 0.00000347576808202
0.00000351018162739 0.00000351018162739 0.00000351018162739
0.00000354459517276 0.00000354459517276 0.00000354459517276
0.00000357900871812 0.00000357900871812 0.00000357900871812
0.00000361342226349 0.00000361342226349 0.00000361342226349
0.00000364783580886 0.00000364783580886 0.00000364783580886
0.00000368224935422 0.00000368224935422 0.00000368224935422
0.00000371666289959 0.00000371666289959 0.00000371666289959
0.00000375107644496 0.00000375107644496 0.00000375107644496
0.00000378548999032 0.00000378548999032 0.00000378548999032
0.00000381990353569 0.00000381990353569 0.00000381990353569
0.00000385431708106 0.00000385431708106 0.00000385431708106
0.00000388873062642 0.00000388873062642 0.00000388873062642
0.00000392314417179 0.00000392314417179 0.00000392314417179
0.00000395755771715 0.00000395755771715 0.00000395755771715
0.00000399197126252 0.00000399197126252 0.00000399197126252
0.00000402638480789 0.00000402638480789 0.00000402638480789
0.00000406079835325 0.00000406079835325 0.00000406079835325
0.00000409521189862 0.00000409521189862 0.00000409521189862
0.00000412962544399 0.00000412962544399 0.00000412962544399
0.00000416403898935 0.00000416403898935 0.00000416403898935
0.00000419845253472 0.00000419845253472 0.00000419845253472
0.00000423286608009 0.00000423286608009 0.00000423286608009
0.00000426727962545 0.00000426727962545 0.00000426727962545
0.00000430169317082 0.00000430169317082 0.00000430169317082
0.00000433610671619 0.00000433610671619 0.00000433610671619
0.00000437052026155 0.00000437052026155 0.00000437052026155
0.00000440493380692 0.00000440493380692 0.00000440493380692
0.00000443934735229 0.00000443934735229 0.00000443934735229
0.00000447376089765 0.00000447376089765 0.00000447376089765
0.00000450817444302 0.00000450817444302 0.00000450817444302
0.00000454258798839 0.00000454258798839 0.00000454258798839
0.00000457700153375 0.00000457700153375 0.00000457700153375
0.00000461141507912 0.00000461141507912 0.00000461141507912
0.00000464582862449 0.00000464582862449 0.00000464582862449
0.00000468024216985 0.00000468024216985 0.00000468024216985
0.00000471465571522 0.00000471465571522 0.00000471465571522
0.00000474906926059 0.00000474906926059 0.00000474906926059
0.00000478348280595 0.00000478348280595 0.00000478348280595
0.00000481789635132 0.00000481789635132 0.00000481789635132
0.00000485230989669 0.00000485230989669 0.00000485230989669
0.00000488672344205 0.00000488672344205 0.00000488672344205
0.00000492113698742 0.00000492113698742 0.00000492113698742
0.00000495555053279 0.00000495555053279 0.00000495555053279
0.00000498996407815 0.00000498996407815 0.00000498996407815
0.00000502437762352 0.00000502437762352 0.00000502437762352
0.00000505879116888 0.00000505879116888 0.00000505879116888
0.00000509320471425 0.00000509320471425 0.00000509320471425
0.00000512761825962 0.00000512761825962 0.00000512761825962
0.00000516203180498 0.00000516203180498 0.00000516203180498
0.00000519644535035 0.00000519644535035 0.00000519644535035
0.00000523085889572 0.00000523085889572 0.00000523085889572
0.00000526527244108 0.00000526527244108 0.00000526527244108
0.00000529968598645 0.00000529968598645 0.00000529968598645
0.00000533409953182 0.00000533409953182 0.00000533409953182
0.00000536851307718 0.00000536851307718 0.00000536851307718
0.00000540292662255 0.00000540292662255 0.00000540292662255
0.00000543734016792 0.00000543734016792 0.00000543734016792
0.00000547175371328 0.00000547175371328 0.00000547175371328
0.00000550616725865 0.00000550616725865 0.00000550616725865
0.00000554058080402 0.00000554058080402 0.00000554058080402
0.00000557499434938 0.00000557499434938 0.00000557499434938
0.00000560940789475 0.00000560940789475 0.00000560940789475
0.00000564382144012 0.00000564382144012 0.00000564382144012
0.00000567823498548 0.00000567823498548 0.00000567823498548
0.00000571264853085 0.00000571264853085 0.00000571264853085
0.00000574706207622 0.00000574706207622 0.00000574706207622
0.00000578147562158 0.00000578147562158 0.00000578147562158
0.00000581588916695 0.00000581588916695 0.00000581588916695
0.00000585030271232 0.00000585030271232 0.00000585030271232
0.00000588471625768 0.00000588471625768 0.00000588471625768
0.00000591912980305 0.00000591912980305 0.00000591912980305
0.00000595354334842 0.00000595354334842 0.00000595354334842
0.00000598795689378 0.00000598795689378 0.00000598795689378
0.00000602237043915 0.00000602237043915 0.00000602237043915
0.00000605678398452 0.00000605678398452 0.00000605678398452
0.00000609119752988 0.00000609119752988 0.00000609119752988
0.00000612561107525 0.00000612561107525 0.00000612561107525
0.00000616002462061 0.00000616002462061 0.00000616002462061
0.00000619443816598 0.00000619443816598 0.00000619443816598
0.00000622885171135 0.00000622885171135 0.00000622885171135
0.00000626326525671 0.00000626326525671 0.00000626326525671
0.00000629767880208 0.00000629767880208 0.00000629767880208
0.00000633209234745 0.00000633209234745 0.00000633209234745
0.00000636650589281 0.00000636650589281 0.00000636650589281
0.00000640091943818 0.00000640091943818 0.00000640091943818
0.00000643533298355 0.00000643533298355 0.00000643533298355
0.00000646974652891 0.00000646974652891 0.00000646974652891
0.00000650416007428 0.00000650416007428 0.00000650416007428
0.00000653857361965 0.00000653857361965 0.00000653857361965
0.00000657298716501 0.00000657298716501 0.00000657298716501
0.00000660740071038 0.00000660740071038 0.00000660740071038
0.00000664181425575 0.00000664181425575 0.00000664181425575
0.00000667622780111 0.00000667622780111 0.00000667622780111
0.00000671064134648 0.00000671064134648 0.00000671064134648
0.00000674505489185 0.00000674505489185 0.00000674505489185
0.00000677946843721 0.00000677946843721 0.00000677946843721
0.00000681388198258 0.00000681388198258 0.00000681388198258
0.00000684829552795 0.00000684829552795 0.00000684829552795
0.00000688270907331 0.00000688270907331 0.00000688270907331
0.00000691712261868 0.00000691712261868 0.00000691712261868
0.00000695153616405 0.00000695153616405 0.00000695153616405
0.00000698594970941 0.00000698594970941 0.00000698594970941
0.00000702036325478 0.00000702036325478 0.00000702036325478
0.00000705477680015 0.00000705477680015 0.00000705477680015
0.00000708919034551 0.00000708919034551 0.00000708919034551
0.00000712360389088 0.00000712360389088 0.00000712360389088
0.00000715801743625 0.00000715801743625 0.00000715801743625
0.00000719243098161 0.00000719243098161 0.00000719243098161
0.00000722684452698 0.00000722684452698 0.00000722684452698
0.00000726125807234 0.00000726125807234 0.00000726125807234
0.00000729567161771 0.00000729567161771 0.00000729567161771
0.00000733008516308 0.00000733008516308 0.00000733008516308
0.00000736449870844 0.00000736449870844 0.00000736449870844
0.00000739891225381 0.00000739891225381 0.00000739891225381
0.00000743332579918 0.00000743332579918 0.00000743332579918
0.00000746773934454 0.00000746773934454 0.00000746773934454
0.00000750215288991 0.00000750215288991 0.00000750215288991
0.00000753656643528 0.00000753656643528 0.00000753656643528
0.00000757097998064 0.00000757097998064 0.00000757097998064
0.00000760539352601 0.00000760539352601 0.00000760539352601
0.00000763980707138 0.00000763980707138 0.00000763980707138
0.00000767422061674 0.00000767422061674 0.00000767422061674
0.00000770863416211 0.00000770863416211 0.00000770863416211
0.00000774304770748 0.00000774304770748 0.00000774304770748
0.00000777746125284 0.00000777746125284 0.00000777746125284
0.00000781187479821 0.00000781187479821 0.00000781187479821
0.00000784628834358 0.00000784628834358 0.00000784628834358
0.00000788070188894 0.00000788070188894 0.00000788070188894
0.00000791511543431 0.00000791511543431 0.00000791511543431
0.00000794952897968 0.00000794952897968 0.00000794952897968
0.00000798394252504 0.00000798394252504 0.00000798394252504
0.00000801835607041 0.00000801835607041 0.00000801835607041
0.00000805276961578 0.00000805276961578 0.00000805276961578
0.00000808718316114 0.00000808718316114 0.00000808718316114
0.00000812159670651 0.00000812159670651 0.00000812159670651
0.00000815601025188 0.00000815601025188 0.00000815601025188
0.00000819042379724 0.00000819042379724 0.00000819042379724
0.00000822483734261 0.00000822483734261 0.00000822483734261
0.00000825925088798 0.00000825925088798 0.00000825925088798
0.00000829366443334 0.00000829366443334 0.00000829366443334
0.00000832807797871 0.00000832807797871 0.00000832807797871
0.00000836249152407 0.00000836249152407 0.00000836249152407
0.00000839690506944 0.00000839690506944 0.00000839690506944
0.00000843131861481 0.00000843131861481 0.00000843131861481
0.00000846573216017 0.00000846573216017 0.00000846573216017
0.00000850014570554 0.00000850014570554 0.00000850014570554
0.00000853455925091 0.00000853455925091 0.00000853455925091
0.00000856897279627 0.00000856897279627 0.00000856897279627
0.00000860338634164 0.00000860338634164 0.00000860338634164
0.00000863779988701 0.00000863779988701 0.00000863779988701
0.00000867221343237 0.00000867221343237 0.00000867221343237
0.00000870662697774 0.00000870662697774 0.00000870662697774
0.00000874104052311 0.00000874104052311 0.00000874104052311
0.00000877545406847 0.00000877545406847 0.00000877545406847
0.00000880986761384 0.00000880986761384 0.00000880986761384
0.00000884428115921 0.00000884428115921 0.00000884428115921
0.00000887869470457 0.00000887869470457 0.00000887869470457
0.00000891310824994 0.00000891310824994 0.00000891310824994
0.00000894752179531 0.00000894752179531 0.00000894752179531
0.00000898193534067 0.00000898193534067 0.00000898193534067
0.00000901634888604 0.00000901634888604 0.00000901634888604
0.00000905076243141 0.00000905076243141 0.00000905076243141
0.00000908517597677 0.00000908517597677 0.00000908517597677
0.00000911958952214 0.00000911958952214 0.00000911958952214
0.00000915400306751 0.00000915400306751 0.00000915400306751
0.00000918841661287 0.00000918841661287 0.00000918841661287
0.00000922283015824 0.00000922283015824 0.00000922283015824
0.00000925724370361 0.00000925724370361 0.00000925724370361
0.00000929165724897 0.00000929165724897 0.00000929165724897
0.00000932607079434 0.00000932607079434 0.00000932607079434
0.00000936048433971 0.00000936048433971 0.00000936048433971
0.00000939489788507 0.00000939489788507 0.00000939489788507
0.00000942931143044 0.00000942931143044 0.00000942931143044
0.00000946372497580 0.00000946372497580 0.00000946372497580
0.00000949813852117 0.00000949813852117 0.00000949813852117
0.00000953255206654 0.00000953255206654 0.00000953255206654
0.00000956696561190 0.00000956696561190 0.00000956696561190
0.00000960137915727 0.00000960137915727 0.00000960137915727
0.00000963579270264 0.00000963579270264 0.00000963579270264
0.00000967020624800 0.00000967020624800 0.00000967020624800
0.00000970461979337 0.00000970461979337 0.00000970461979337
0.00000973903333874 0.00000973903333874 0.00000973903333874
0.00000977344688410 0.00000977344688410 0.00000977344688410
0.00000980786042947 0.00000980786042947 0.00000980786042947
0.00000984227397484 0.00000984227397484 0.00000984227397484
0.00000987668752020 0.00000987668752020 0.00000987668752020
0.00000991110106557 0.00000991110106557 0.00000991110106557
0.00000994551461094 0.00000994551461094 0.00000994551461094
0.00000997992815630 0.00000997992815630 0.00000997992815630
0.00001001434170167 0.00001001434170167 0.00001001434170167
0.00001004875524704 0.00001004875524704 0.00001004875524704
0.00001008316879240 0.00001008316879240 0.00001008316879240
0.00001011758233777 0.00001011758233777 0.00001011758233777
0.00001015199588314 0.00001015199588314 0.00001015199588314
0.00001018640942850 0.00001018640942850 0.00001018640942850
0.00001022082297387 0.00001022082297387 0.00001022082297387
0.00001025523651924 0.00001025523651924 0.00001025523651924
0.00001028965006460 0.00001028965006460 0.00001028965006460
0.00001032406360997 0.00001032406360997 0.00001032406360997
0.00001035847715534 0.00001035847715534 0.00001035847715534
0.00001039289070070 0.00001039289070070 0.00001039289070070
0.00001042730424607 0.00001042730424607 0.00001042730424607
0.00001046171779144 0.00001046171779144 0.00001046171779144
0.00001049613133680 0.00001049613133680 0.00001049613133680
0.00001053054488217 0.00001053054488217 0.00001053054488217
0.00001056495842754 0.00001056495842754 0.00001056495842754
0.00001059937197290 0.00001059937197290 0.00001059937197290
0.00001063378551827 0.00001063378551827 0.00001063378551827
0.00001066819906363 0.00001066819906363 0.00001066819906363
0.00001070261260900 0.00001070261260900 0.00001070261260900
0.00001073702615437 0.00001073702615437 0.00001073702615437
0.00001077143969973 0.00001077143969973 0.00001077143969973
0.00001080585324510 0.00001080585324510 0.00001080585324510
0.00001084026679047 0.00001084026679047 0.00001084026679047
0.00001087468033583 0.00001087468033583 0.00001087468033583
0.00001090909388120 0.00001090909388120 0.00001090909388120
0.00001094350742657 0.00001094350742657 0.00001094350742657
0.00001097792097193 0.00001097792097193 0.00001097792097193
0.00001101233451730 0.00001101233451730 0.00001101233451730
0.00001104674806267 0.00001104674806267 0.00001104674806267
0.00001108116160803 0.00001108116160803 0.00001108116160803
0.00001111557515340 0.00001111557515340 0.00001111557515340
0.00001114998869877 0.00001114998869877 0.00001114998869877
0.00001118440224413 0.00001118440224413 0.00001118440224413
0.00001121881578950 0.00001121881578950 0.00001121881578950
0.00001125322933487 0.00001125322933487 0.00001125322933487
0.00001128764288023 0.00001128764288023 0.00001128764288023
0.00001132205642560 0.00001132205642560 0.00001132205642560
0.00001135646997097 0.00001135646997097 0.00001135646997097
0.00001139088351633 0.00001139088351633 0.00001139088351633
0.00001142529706170 0.00001142529706170 0.00001142529706170
0.00001145971060707 0.00001145971060707 0.00001145971060707
0.00001149412415243 0.00001149412415243 0.00001149412415243
0.00001152853769780 0.00001152853769780 0.00001152853769780
0.00001156295124317 0.00001156295124317 0.00001156295124317
0.00001159736478853 0.00001159736478853 0.00001159736478853
0.00001163177833390 0.00001163177833390 0.00001163177833390
0.00001166619187927 0.00001166619187927 0.00001166619187927
0.00001170060542463 0.00001170060542463 0.00001170060542463
0.00001173501897000 0.00001173501897000 0.00001173501897000
0.00001176943251536 0.00001176943251536 0.00001176943251536
0.00001180384606073 0.00001180384606073 0.00001180384606073
0.00001183825960610 0.00001183825960610 0.00001183825960610
0.00001187267315146 0.00001187267315146 0.00001187267315146
0.00001190708669683 0.00001190708669683 0.00001190708669683
0.00001194150024220 0.00001194150024220 0.00001194150024220
0.00001197591378756 0.00001197591378756 0.00001197591378756
0.00001201032733293 0.00001201032733293 0.00001201032733293
0.00001204474087830 0.00001204474087830 0.00001204474087830
0.00001207915442366 0.00001207915442366 0.00001207915442366
0.00001211356796903 0.00001211356796903 0.00001211356796903
0.00001214798151440 0.00001214798151440 0.00001214798151440
0.00001218239505976 0.00001218239505976 0.00001218239505976
0.00001221680860513 0.00001221680860513 0.00001221680860513
0.00001225122215050 0.00001225122215050 0.00001225122215050
0.00001228563569586 0.00001228563569586 0.00001228563569586
0.00001232004924123 0.00001232004924123 0.00001232004924123
0.00001235446278660 0.00001235446278660 0.00001235446278660
0.00001238887633196 0.00001238887633196 0.00001238887633196
0.00001242328987733 0.00001242328987733 0.00001242328987733
0.00001245770342270 0.00001245770342270 0.00001245770342270
0.00001249211696806 0.00001249211696806 0.00001249211696806
0.00001252653051343 0.00001252653051343 0.00001252653051343
0.00001256094405880 0.00001256094405880 0.00001256094405880
0.00001259535760416 0.00001259535760416 0.00001259535760416
0.00001262977114953 0.00001262977114953 0.00001262977114953
0.00001266418469490 0.00001266418469490 0.00001266418469490
0.00001269859824026 0.00001269859824026 0.00001269859824026
0.00001273301178563 0.00001273301178563 0.00001273301178563
0.00001276742533100 0.00001276742533100 0.00001276742533100
0.00001280183887636 0.00001280183887636 0.00001280183887636
0.00001283625242173 0.00001283625242173 0.00001283625242173
0.00001287066596709 0.00001287066596709 0.00001287066596709
0.00001290507951246 0.00001290507951246 0.00001290507951246
0.00001293949305783 0.00001293949305783 0.00001293949305783
0.00001297390660319 0.00001297390660319 0.00001297390660319
0.00001300832014856 0.00001300832014856 0.00001300832014856
0.00001304273369393 0.00001304273369393 0.00001304273369393
0.00001307714723929 0.00001307714723929 0.00001307714723929
0.00001311156078466 0.00001311156078466 0.00001311156078466
0.00001314597433003 0.00001314597433003 0.00001314597433003
0.00001318038787539 0.00001318038787539 0.00001318038787539
0.00001321480142076 0.00001321480142076 0.00001321480142076
0.00001324921496613 0.00001324921496613 0.00001324921496613
0.00001328362851149 0.00001328362851149 0.00001328362851149
0.00001331804205686 0.00001331804205686 0.00001331804205686
0.00001335245560223 0.00001335245560223 0.00001335245560223
0.00001338686914759 0.00001338686914759 0.00001338686914759
0.00001342128269296 0.00001342128269296 0.00001342128269296
0.00001345569623833 0.00001345569623833 0.00001345569623833
0.00001349010978369 0.00001349010978369 0.00001349010978369
0.00001352452332906 0.00001352452332906 0.00001352452332906
0.00001355893687443 0.00001355893687443 0.00001355893687443
0.00001359335041979 0.00001359335041979 0.00001359335041979
