DaVinci_HLG_1D_LUT_LinToe/Linear_to_HLG_1D_65536.cube
TITLE "Linear Scene E to HLG - 1D 65536"
LUT_1D_SIZE 65536
DOMAIN_MIN 0.00000000000000000 0.00000000000000000 0.00000000000000000
DOMAIN_MAX 1.00000000000000000 1.00000000000000000 1.00000000000000000

0.00000000000000000 0.00000000000000000 0.00000000000000000
0.00676587508679323 0.00676587508679323 0.00676587508679323
0.00956839230906522 0.00956839230906522 0.00956839230906522
0.01171883940799036 0.01171883940799036 0.01171883940799036
0.01353175017358645 0.01353175017358645 0.01353175017358645
0.01512895662134195 0.01512895662134195 0.01512895662134195
0.01657294162605226 0.01657294162605226 0.01657294162605226
0.01790082288138243 0.01790082288138243 0.01790082288138243
0.01913678461813045 0.01913678461813045 0.01913678461813045
0.02029762526037968 0.02029762526037968 0.02029762526037968
0.02139557563845602 0.02139557563845602 0.02139557563845602
0.02243986904130641 0.02243986904130641 0.02243986904130641
0.02343767881598071 0.02343767881598071 0.02343767881598071
0.02439470954881735 0.02439470954881735 0.02439470954881735
0.02531558649648966 0.02531558649648966 0.02531558649648966
0.02620412153366983 0.02620412153366983 0.02620412153366983
0.02706350034717291 0.02706350034717291 0.02706350034717291
0.02789641763258353 0.02789641763258353 0.02789641763258353
0.02870517692719567 0.02870517692719567 0.02870517692719567
0.02949176576795116 0.02949176576795116 0.02949176576795116
0.03025791324268389 0.03025791324268389 0.03025791324268389
0.03100513472784588 0.03100513472784588 0.03100513472784588
0.03173476713609167 0.03173476713609167 0.03173476713609167
0.03244799702403914 0.03244799702403914 0.03244799702403914
0.03314588325210451 0.03314588325210451 0.03314588325210451
0.03382937543396614 0.03382937543396614 0.03382937543396614
0.03449932909408995 0.03449932909408995 0.03449932909408995
0.03515651822397108 0.03515651822397108 0.03515651822397108
0.03580164576276487 0.03580164576276487 0.03580164576276487
0.03643535240686700 0.03643535240686700 0.03643535240686700
0.03705822406298874 0.03705822406298874 0.03705822406298874
0.03767079819160681 0.03767079819160681 0.03767079819160681
0.03827356923626089 0.03827356923626089 0.03827356923626089
0.03886699329473461 0.03886699329473461 0.03886699329473461
0.03945149215762359 0.03945149215762359 0.03945149215762359
0.04002745681595478 0.04002745681595478 0.04002745681595478
0.04059525052075937 0.04059525052075937 0.04059525052075937
0.04115521146262406 0.04115521146262406 0.04115521146262406
0.04170765512736711 0.04170765512736711 0.04170765512736711
0.04225287637443730 0.04225287637443730 0.04225287637443730
0.04279115127691203 0.04279115127691203 0.04279115127691203
0.04332273875568880 0.04332273875568880 0.04332273875568880
0.04384788203532469 0.04384788203532469 0.04384788203532469
0.04436680994475305 0.04436680994475305 0.04436680994475305
0.04487973808261282 0.04487973808261282 0.04487973808261282
0.04538686986402583 0.04538686986402583 0.04538686986402583
0.04588839746323798 0.04588839746323798 0.04588839746323798
0.04638450266451281 0.04638450266451281 0.04638450266451281
0.04687535763196143 0.04687535763196143 0.04687535763196143
0.04736112560755259 0.04736112560755259 0.04736112560755259
0.04784196154532612 0.04784196154532612 0.04784196154532612
0.04831801268879498 0.04831801268879498 0.04831801268879498
0.04878941909763471 0.04878941909763471 0.04878941909763471
0.04925631412900006 0.04925631412900006 0.04925631412900006
0.04971882487815676 0.04971882487815676 0.04971882487815676
0.05017707258255417 0.05017707258255417 0.05017707258255417
0.05063117299297933 0.05063117299297933 0.05063117299297933
0.05108123671501198 0.05108123671501198 0.05108123671501198
0.05152736952363450 0.05152736952363450 0.05152736952363450
0.05196967265353195 0.05196967265353195 0.05196967265353195
0.05240824306733966 0.05240824306733966 0.05240824306733966
0.05284317370385171 0.05284317370385171 0.05284317370385171
0.05327455370799022 0.05327455370799022 0.05327455370799022
0.05370246864414730 0.05370246864414730 0.05370246864414730
0.05412700069434582 0.05412700069434582 0.05412700069434582
0.05454822884251882 0.05454822884251882 0.05454822884251882
0.05496622904607784 0.05496622904607784 0.05496622904607784
0.05538107439582570 0.05538107439582570 0.05538107439582570
0.05579283526516707 0.05579283526516707 0.05579283526516707
0.05620157944947952 0.05620157944947952 0.05620157944947952
0.05660737229642663 0.05660737229642663 0.05660737229642663
0.05701027682792233 0.05701027682792233 0.05701027682792233
0.05741035385439135 0.05741035385439135 0.05741035385439135
0.05780766208191191 0.05780766208191191 0.05780766208191191
0.05820225821277560 0.05820225821277560 0.05820225821277560
0.05859419703995179 0.05859419703995179 0.05859419703995179
0.05898353153590232 0.05898353153590232 0.05898353153590232
0.05937031293615415 0.05937031293615415 0.05937031293615415
0.05975459081800295 0.05975459081800295 0.05975459081800295
0.06013641317469019 0.06013641317469019 0.06013641317469019
0.06051582648536779 0.06051582648536779 0.06051582648536779
0.06089287578113905 0.06089287578113905 0.06089287578113905
0.06126760470744159 0.06126760470744159 0.06126760470744159
0.06164005558301687 0.06164005558301687 0.06164005558301687
0.06201026945569176 0.06201026945569176 0.06201026945569176
0.06237828615518053 0.06237828615518053 0.06237828615518053
0.06274414434309927 0.06274414434309927 0.06274414434309927
0.06310788156037062 0.06310788156037062 0.06310788156037062
0.06346953427218334 0.06346953427218334 0.06346953427218334
0.06382913791065914 0.06382913791065914 0.06382913791065914
0.06418672691536804 0.06418672691536804 0.06418672691536804
0.06454233477182339 0.06454233477182339 0.06454233477182339
0.06489599404807829 0.06489599404807829 0.06489599404807829
0.06524773642953678 0.06524773642953678 0.06524773642953678
0.06559759275208497 0.06559759275208497 0.06559759275208497
0.06594559303364009 0.06594559303364009 0.06594559303364009
0.06629176650420902 0.06629176650420902 0.06629176650420902
0.06663614163454137 0.06663614163454137 0.06663614163454137
0.06697874616345656 0.06697874616345656 0.06697874616345656
0.06731960712391924 0.06731960712391924 0.06731960712391924
0.06765875086793227 0.06765875086793227 0.06765875086793227
0.06799620309031244 0.06799620309031244 0.06799620309031244
0.06833198885140916 0.06833198885140916 0.06833198885140916
0.06866613259882338 0.06866613259882338 0.06866613259882338
0.06899865818817989 0.06899865818817989 0.06899865818817989
0.06932958890300284 0.06932958890300284 0.06932958890300284
0.06965894747374139 0.06965894747374139 0.06965894747374139
0.06998675609598970 0.06998675609598970 0.06998675609598970
0.07031303644794215 0.07031303644794215 0.07031303644794215
0.07063780970712306 0.07063780970712306 0.07063780970712306
0.07096109656642730 0.07096109656642730 0.07096109656642730
0.07128291724950592 0.07128291724950592 0.07128291724950592
0.07160329152552973 0.07160329152552973 0.07160329152552973
0.07192223872336070 0.07192223872336070 0.07192223872336070
0.07223977774516042 0.07223977774516042 0.07223977774516042
0.07255592707946240 0.07255592707946240 0.07255592707946240
0.07287070481373399 0.07287070481373399 0.07287070481373399
0.07318412864645206 0.07318412864645206 0.07318412864645206
0.07349621589871504 0.07349621589871504 0.07349621589871504
0.07380698352541325 0.07380698352541325 0.07380698352541325
0.07411644812597748 0.07411644812597748 0.07411644812597748
0.07442462595472550 0.07442462595472550 0.07442462595472550
0.07473153293082438 0.07473153293082438 0.07473153293082438
0.07503718464788628 0.07503718464788628 0.07503718464788628
0.07534159638321362 0.07534159638321362 0.07534159638321362
0.07564478310670973 0.07564478310670973 0.07564478310670973
0.07594675948946898 0.07594675948946898 0.07594675948946898
0.07624753991206101 0.07624753991206101 0.07624753991206101
0.07654713847252179 0.07654713847252179 0.07654713847252179
0.07684556899406442 0.07684556899406442 0.07684556899406442
0.07714284503252135 0.07714284503252135 0.07714284503252135
0.07743897988352955 0.07743897988352955 0.07743897988352955
0.07773398658946923 0.07773398658946923 0.07773398658946923
0.07802787794616661 0.07802787794616661 0.07802787794616661
0.07832066650937007 0.07832066650937007 0.07832066650937007
0.07861236460100950 0.07861236460100950 0.07861236460100950
0.07890298431524717 0.07890298431524717 0.07890298431524717
0.07919253752432882 0.07919253752432882 0.07919253752432882
0.07948103588424298 0.07948103588424298 0.07948103588424298
0.07976849084019584 0.07976849084019584 0.07976849084019584
0.08005491363190956 0.08005491363190956 0.08005491363190956
0.08034031529875015 0.08034031529875015 0.08034031529875015
0.08062470668469235 0.08062470668469235 0.08062470668469235
0.08090809844312721 0.08090809844312721 0.08090809844312721
0.08119050104151873 0.08119050104151873 0.08119050104151873
0.08147192476591518 0.08147192476591518 0.08147192476591518
0.08175237972532073 0.08175237972532073 0.08175237972532073
0.08203187585593250 0.08203187585593250 0.08203187585593250
0.08231042292524812 0.08231042292524812 0.08231042292524812
0.08258803053604863 0.08258803053604863 0.08258803053604863
0.08286470813026128 0.08286470813026128 0.08286470813026128
0.08314046499270664 0.08314046499270664 0.08314046499270664
0.08341531025473423 0.08341531025473423 0.08341531025473423
0.08368925289775060 0.08368925289775060 0.08368925289775060
0.08396230175664401 0.08396230175664401 0.08396230175664401
0.08423446552310898 0.08423446552310898 0.08423446552310898
0.08450575274887459 0.08450575274887459 0.08450575274887459
0.08477617184883979 0.08477617184883979 0.08477617184883979
0.08504573110411895 0.08504573110411895 0.08504573110411895
0.08531443866500085 0.08531443866500085 0.08531443866500085
0.08558230255382407 0.08558230255382407 0.08558230255382407
0.08584933066777149 0.08584933066777149 0.08584933066777149
0.08611553078158701 0.08611553078158701 0.08611553078158701
0.08638091055021677 0.08638091055021677 0.08638091055021677
0.08664547751137759 0.08664547751137759 0.08664547751137759
0.08690923908805513 0.08690923908805513 0.08690923908805513
0.08717220259093388 0.08717220259093388 0.08717220259093388
0.08743437522076147 0.08743437522076147 0.08743437522076147
0.08769576407064937 0.08769576407064937 0.08769576407064937
0.08795637612831196 0.08795637612831196 0.08795637612831196
0.08821621827824618 0.08821621827824618 0.08821621827824618
0.08847529730385349 0.08847529730385349 0.08847529730385349
0.08873361988950611 0.08873361988950611 0.08873361988950611
0.08899119262255924 0.08899119262255924 0.08899119262255924
0.08924802199531108 0.08924802199531108 0.08924802199531108
0.08950411440691215 0.08950411440691215 0.08950411440691215
0.08975947616522564 0.08975947616522564 0.08975947616522564
0.09001411348864020 0.09001411348864020 0.09001411348864020
0.09026803250783684 0.09026803250783684 0.09026803250783684
0.09052123926751100 0.09052123926751100 0.09052123926751100
0.09077373972805167 0.09077373972805167 0.09077373972805167
0.09102553976717830 0.09102553976717830 0.09102553976717830
0.09127664518153725 0.09127664518153725 0.09127664518153725
0.09152706168825882 0.09152706168825882 0.09152706168825882
0.09177679492647596 0.09177679492647596 0.09177679492647596
0.09202585045880594 0.09202585045880594 0.09202585045880594
0.09227423377279598 0.09227423377279598 0.09227423377279598
0.09252195028233404 0.09252195028233404 0.09252195028233404
0.09276900532902561 0.09276900532902561 0.09276900532902561
0.09301540418353764 0.09301540418353764 0.09301540418353764
0.09326115204691052 0.09326115204691052 0.09326115204691052
0.09350625405183896 0.09350625405183896 0.09350625405183896
0.09375071526392285 0.09375071526392285 0.09375071526392285
0.09399454068288875 0.09399454068288875 0.09399454068288875
0.09423773524378287 0.09423773524378287 0.09423773524378287
0.09448030381813664 0.09448030381813664 0.09448030381813664
0.09472225121510518 0.09472225121510518 0.09472225121510518
0.09496358218257979 0.09496358218257979 0.09496358218257979
0.09520430140827502 0.09520430140827502 0.09520430140827502
0.09544441352079107 0.09544441352079107 0.09544441352079107
0.09568392309065224 0.09568392309065224 0.09568392309065224
0.09592283463132198 0.09592283463132198 0.09592283463132198
0.09616115260019521 0.09616115260019521 0.09616115260019521
0.09639888139956874 0.09639888139956874 0.09639888139956874
0.09663602537758996 0.09663602537758996 0.09663602537758996
0.09687258882918480 0.09687258882918480 0.09687258882918480
0.09710857599696532 0.09710857599696532 0.09710857599696532
0.09734399107211744 0.09734399107211744 0.09734399107211744
0.09757883819526941 0.09757883819526941 0.09757883819526941
0.09781312145734158 0.09781312145734158 0.09781312145734158
0.09804684490037784 0.09804684490037784 0.09804684490037784
0.09828001251835917 0.09828001251835917 0.09828001251835917
0.09851262825800013 0.09851262825800013 0.09851262825800013
0.09874469601952812 0.09874469601952812 0.09874469601952812
0.09897621965744652 0.09897621965744652 0.09897621965744652
0.09920720298128151 0.09920720298128151 0.09920720298128151
0.09943764975631353 0.09943764975631353 0.09943764975631353
0.09966756370429333 0.09966756370429333 0.09966756370429333
0.09989694850414331 0.09989694850414331 0.09989694850414331
0.10012580779264429 0.10012580779264429 0.10012580779264429
0.10035414516510835 0.10035414516510835 0.10035414516510835
0.10058196417603768 0.10058196417603768 0.10058196417603768
0.10080926833977032 0.10080926833977032 0.10080926833977032
0.10103606113111252 0.10103606113111252 0.10103606113111252
0.10126234598595865 0.10126234598595865 0.10126234598595865
0.10148812630189841 0.10148812630189841 0.10148812630189841
0.10171340543881212 0.10171340543881212 0.10171340543881212
0.10193818671945397 0.10193818671945397 0.10193818671945397
0.10216247343002396 0.10216247343002396 0.10216247343002396
0.10238626882072831 0.10238626882072831 0.10238626882072831
0.10260957610632904 0.10260957610632904 0.10260957610632904
0.10283239846668277 0.10283239846668277 0.10283239846668277
0.10305473904726900 0.10305473904726900 0.10305473904726900
0.10327660095970820 0.10327660095970820 0.10327660095970820
0.10349798728226983 0.10349798728226983 0.10349798728226983
0.10371890106037075 0.10371890106037075 0.10371890106037075
0.10393934530706390 0.10393934530706390 0.10393934530706390
0.10415932300351781 0.10415932300351781 0.10415932300351781
0.10437883709948700 0.10437883709948700 0.10437883709948700
0.10459789051377343 0.10459789051377343 0.10459789051377343
0.10481648613467932 0.10481648613467932 0.10481648613467932
0.10503462682045150 0.10503462682045150 0.10503462682045150
0.10525231539971745 0.10525231539971745 0.10525231539971745
0.10546955467191321 0.10546955467191321 0.10546955467191321
0.10568634740770341 0.10568634740770341 0.10568634740770341
0.10590269634939363 0.10590269634939363 0.10590269634939363
0.10611860421133497 0.10611860421133497 0.10611860421133497
0.10633407368032154 0.10633407368032154 0.10633407368032154
0.10654910741598043 0.10654910741598043 0.10654910741598043
0.10676370805115484 0.10676370805115484 0.10676370805115484
0.10697787819228009 0.10697787819228009 0.10697787819228009
0.10719162041975298 0.10719162041975298 0.10719162041975298
0.10740493728829460 0.10740493728829460 0.10740493728829460
0.10761783132730647 0.10761783132730647 0.10761783132730647
0.10783030504122054 0.10783030504122054 0.10783030504122054
0.10804236090984297 0.10804236090984297 0.10804236090984297
0.10825400138869164 0.10825400138869164 0.10825400138869164
0.10846522890932808 0.10846522890932808 0.10846522890932808
0.10867604587968330 0.10867604587968330 0.10867604587968330
0.10888645468437808 0.10888645468437808 0.10888645468437808
0.10909645768503765 0.10909645768503765 0.10909645768503765
0.10930605722060099 0.10930605722060099 0.10930605722060099
0.10951525560762476 0.10951525560762476 0.10951525560762476
0.10972405514058198 0.10972405514058198 0.10972405514058198
0.10993245809215568 0.10993245809215568 0.10993245809215568
0.11014046671352749 0.11014046671352749 0.11014046671352749
0.11034808323466133 0.11034808323466133 0.11034808323466133
0.11055530986458242 0.11055530986458242 0.11055530986458242
0.11076214879165140 0.11076214879165140 0.11076214879165140
0.11096860218383403 0.11096860218383403 0.11096860218383403
0.11117467218896623 0.11117467218896623 0.11117467218896623
0.11138036093501490 0.11138036093501490 0.11138036093501490
0.11158567053033414 0.11158567053033414 0.11158567053033414
0.11179060306391754 0.11179060306391754 0.11179060306391754
0.11199516060564607 0.11199516060564607 0.11199516060564607
0.11219934520653206 0.11219934520653206 0.11219934520653206
0.11240315889895905 0.11240315889895905 0.11240315889895905
0.11260660369691791 0.11260660369691791 0.11260660369691791
0.11280968159623896 0.11280968159623896 0.11280968159623896
0.11301239457482044 0.11301239457482044 0.11301239457482044
0.11321474459285326 0.11321474459285326 0.11321474459285326
0.11341673359304211 0.11341673359304211 0.11341673359304211
0.11361836350082312 0.11361836350082312 0.11361836350082312
0.11381963622457797 0.11381963622457797 0.11381963622457797
0.11402055365584467 0.11402055365584467 0.11402055365584467
0.11422111766952485 0.11422111766952485 0.11422111766952485
0.11442133012408801 0.11442133012408801 0.11442133012408801
0.11462119286177237 0.11462119286177237 0.11462119286177237
0.11482070770878269 0.11482070770878269 0.11482070770878269
0.11501987647548487 0.11501987647548487 0.11501987647548487
0.11521870095659770 0.11521870095659770 0.11521870095659770
0.11541718293138148 0.11541718293138148 0.11541718293138148
0.11561532416382382 0.11561532416382382 0.11561532416382382
0.11581312640282256 0.11581312640282256 0.11581312640282256
0.11601059138236579 0.11601059138236579 0.11601059138236579
0.11620772082170931 0.11620772082170931 0.11620772082170931
0.11640451642555120 0.11640451642555120 0.11640451642555120
0.11660097988420386 0.11660097988420386 0.11660097988420386
0.11679711287376328 0.11679711287376328 0.11679711287376328
0.11699291705627606 0.11699291705627606 0.11699291705627606
0.11718839407990357 0.11718839407990357 0.11718839407990357
0.11738354557908390 0.11738354557908390 0.11738354557908390
0.11757837317469126 0.11757837317469126 0.11757837317469126
0.11777287847419306 0.11777287847419306 0.11777287847419306
0.11796706307180464 0.11796706307180464 0.11796706307180464
0.11816092854864177 0.11816092854864177 0.11816092854864177
0.11835447647287074 0.11835447647287074 0.11835447647287074
0.11854770839985648 0.11854770839985648 0.11854770839985648
0.11874062587230830 0.11874062587230830 0.11874062587230830
0.11893323042042363 0.11893323042042363 0.11893323042042363
0.11912552356202960 0.11912552356202960 0.11912552356202960
0.11931750680272263 0.11931750680272263 0.11931750680272263
0.11950918163600591 0.11950918163600591 0.11950918163600591
0.11970054954342499 0.11970054954342499 0.11970054954342499
0.11989161199470141 0.11989161199470141 0.11989161199470141
0.12008237044786432 0.12008237044786432 0.12008237044786432
0.12027282634938039 0.12027282634938039 0.12027282634938039
0.12046298113428165 0.12046298113428165 0.12046298113428165
0.12065283622629178 0.12065283622629178 0.12065283622629178
0.12084239303795037 0.12084239303795037 0.12084239303795037
0.12103165297073558 0.12103165297073558 0.12103165297073558
0.12122061741518500 0.12122061741518500 0.12122061741518500
0.12140928775101492 0.12140928775101492 0.12140928775101492
0.12159766534723779 0.12159766534723779 0.12159766534723779
0.12178575156227810 0.12178575156227810 0.12178575156227810
0.12197354774408675 0.12197354774408675 0.12197354774408675
0.12216105523025372 0.12216105523025372 0.12216105523025372
0.12234827534811918 0.12234827534811918 0.12234827534811918
0.12253520941488319 0.12253520941488319 0.12253520941488319
0.12272185873771375 0.12272185873771375 0.12272185873771375
0.12290822461385348 0.12290822461385348 0.12290822461385348
0.12309430833072481 0.12309430833072481 0.12309430833072481
0.12328011116603374 0.12328011116603374 0.12328011116603374
0.12346563438787218 0.12346563438787218 0.12346563438787218
0.12365087925481895 0.12365087925481895 0.12365087925481895
0.12383584701603936 0.12383584701603936 0.12383584701603936
0.12402053891138352 0.12402053891138352 0.12402053891138352
0.12420495617148328 0.12420495617148328 0.12420495617148328
0.12438910001784792 0.12438910001784792 0.12438910001784792
0.12457297166295850 0.12457297166295850 0.12457297166295850
0.12475657231036107 0.12475657231036107 0.12475657231036107
0.12493990315475853 0.12493990315475853 0.12493990315475853
0.12512296538210133 0.12512296538210133 0.12512296538210133
0.12530576016967704 0.12530576016967704 0.12530576016967704
0.12548828868619855 0.12548828868619855 0.12548828868619855
0.12567055209189143 0.12567055209189143 0.12567055209189143
0.12585255153857980 0.12585255153857980 0.12585255153857980
0.12603428816977139 0.12603428816977139 0.12603428816977139
0.12621576312074123 0.12621576312074123 0.12621576312074123
0.12639697751861456 0.12639697751861456 0.12639697751861456
0.12657793248244831 0.12657793248244831 0.12657793248244831
0.12675862912331187 0.12675862912331187 0.12675862912331187
0.12693906854436668 0.12693906854436668 0.12693906854436668
0.12711925184094464 0.12711925184094464 0.12711925184094464
0.12729918010062594 0.12729918010062594 0.12729918010062594
0.12747885440331541 0.12747885440331541 0.12747885440331541
0.12765827582131828 0.12765827582131828 0.12765827582131828
0.12783744541941483 0.12783744541941483 0.12783744541941483
0.12801636425493404 0.12801636425493404 0.12801636425493404
0.12819503337782648 0.12819503337782648 0.12819503337782648
0.12837345383073609 0.12837345383073609 0.12837345383073609
0.12855162664907133 0.12855162664907133 0.12855162664907133
0.12872955286107504 0.12872955286107504 0.12872955286107504
0.12890723348789393 0.12890723348789393 0.12890723348789393
0.12908466954364678 0.12908466954364678 0.12908466954364678
0.12926186203549206 0.12926186203549206 0.12926186203549206
0.12943881196369453 0.12943881196369453 0.12943881196369453
0.12961552032169127 0.12961552032169127 0.12961552032169127
0.12979198809615658 0.12979198809615658 0.12979198809615658
0.12996821626706637 0.12996821626706637 0.12996821626706637
0.13014420580776168 0.13014420580776168 0.13014420580776168
0.13031995768501123 0.13031995768501123 0.13031995768501123
0.13049547285907356 0.13049547285907356 0.13049547285907356
0.13067075228375818 0.13067075228375818 0.13067075228375818
0.13084579690648601 0.13084579690648601 0.13084579690648601
0.13102060766834916 0.13102060766834916 0.13102060766834916
0.13119518550416995 0.13119518550416995 0.13119518550416995
0.13136953134255924 0.13136953134255924 0.13136953134255924
0.13154364610597405 0.13154364610597405 0.13154364610597405
0.13171753071077452 0.13171753071077452 0.13171753071077452
0.13189118606728018 0.13189118606728018 0.13189118606728018
0.13206461307982548 0.13206461307982548 0.13206461307982548
0.13223781264681483 0.13223781264681483 0.13223781264681483
0.13241078566077685 0.13241078566077685 0.13241078566077685
0.13258353300841805 0.13258353300841805 0.13258353300841805
0.13275605557067582 0.13275605557067582 0.13275605557067582
0.13292835422277091 0.13292835422277091 0.13292835422277091
0.13310042983425915 0.13310042983425915 0.13310042983425915
0.13327228326908275 0.13327228326908275 0.13327228326908275
0.13344391538562081 0.13344391538562081 0.13344391538562081
0.13361532703673937 0.13361532703673937 0.13361532703673937
0.13378651906984090 0.13378651906984090 0.13378651906984090
0.13395749232691312 0.13395749232691312 0.13395749232691312
0.13412824764457740 0.13412824764457740 0.13412824764457740
0.13429878585413635 0.13429878585413635 0.13429878585413635
0.13446910778162122 0.13446910778162122 0.13446910778162122
