DaVinci_ST2084_1D_LUT_65536/Linear_to_ST2084_PQ_1D_65536.cube
TITLE "Linear Y=L/10000 to ST2084 PQ - 1D 65536"
LUT_1D_SIZE 65536
DOMAIN_MIN 0.00000000000000000 0.00000000000000000 0.00000000000000000
DOMAIN_MAX 1.00000000000000000 1.00000000000000000 1.00000000000000000

0.00000073095590258 0.00000073095590258 0.00000073095590258
0.07428768111929397 0.07428768111929397 0.07428768111929397
0.09767914638737123 0.09767914638737123 0.09767914638737123
0.11372453618922446 0.11372453618922446 0.11372453618922446
0.12623017345441101 0.12623017345441101 0.12623017345441101
0.13659137506330954 0.13659137506330954 0.13659137506330954
0.14549416661313361 0.14549416661313361 0.14549416661313361
0.15333202970224408 0.15333202970224408 0.15333202970224408
0.16035367901146352 0.16035367901146352 0.16035367901146352
0.16672729100290265 0.16672729100290265 0.16672729100290265
0.17257238431207014 0.17257238431207014 0.17257238431207014
0.17797721446092452 0.17797721446092452 0.17797721446092452
0.18300896615080089 0.18300896615080089 0.18300896615080089
0.18772006825322815 0.18772006825322815 0.18772006825322815
0.19215228658123881 0.19215228658123881 0.19215228658123881
0.19633947668237817 0.19633947668237817 0.19633947668237817
0.20030949392392031 0.20030949392392031 0.20030949392392031
0.20408555447422211 0.20408555447422211 0.20408555447422211
0.20768722747770907 0.20768722747770907 0.20768722747770907
0.21113117293609659 0.21113117293609659 0.21113117293609659
0.21443170018465177 0.21443170018465177 0.21443170018465177
0.21760119721130547 0.21760119721130547 0.21760119721130547
0.22065046530587268 0.22065046530587268 0.22065046530587268
0.22358898319227813 0.22358898319227813 0.22358898319227813
0.22642511786817962 0.22642511786817962 0.22642511786817962
0.22916629463756918 0.22916629463756918 0.22916629463756918
0.23181913552171080 0.23181913552171080 0.23181913552171080
0.23438957289793783 0.23438957289793783 0.23438957289793783
0.23688294353701370 0.23688294353701370 0.23688294353701370
0.23930406698728224 0.23930406698728224 0.23930406698728224
0.24165731135170790 0.24165731135170790 0.24165731135170790
0.24394664883098544 0.24394664883098544 0.24394664883098544
0.24617570289804483 0.24617570289804483 0.24617570289804483
0.24834778858255280 0.24834778858255280 0.24834778858255280
0.25046594704647257 0.25046594704647257 0.25046594704647257
0.25253297540105202 0.25253297540105202 0.25253297540105202
0.25455145253512429 0.25455145253512429 0.25455145253512429
0.25652376158244633 0.25652376158244633 0.25652376158244633
0.25845210954297182 0.25845210954297182 0.25845210954297182
0.26033854448274241 0.26033854448274241 0.26033854448274241
0.26218497066465468 0.26218497066465468 0.26218497066465468
0.26399316190368710 0.26399316190368710 0.26399316190368710
0.26576477339245214 0.26576477339245214 0.26576477339245214
0.26750135220398025 0.26750135220398025 0.26750135220398025
0.26920434664648957 0.26920434664648957 0.26920434664648957
0.27087511461851121 0.27087511461851121 0.27087511461851121
0.27251493109063296 0.27251493109063296 0.27251493109063296
0.27412499482189140 0.27412499482189140 0.27412499482189140
0.27570643440347253 0.27570643440347253 0.27570643440347253
0.27726031370948157 0.27726031370948157 0.27726031370948157
0.27878763682369545 0.27878763682369545 0.27878763682369545
0.28028935250197179 0.28028935250197179 0.28028935250197179
0.28176635822219093 0.28176635822219093 0.28176635822219093
0.28321950386695954 0.28321950386695954 0.28321950386695954
0.28464959507854404 0.28464959507854404 0.28464959507854404
0.28605739632064237 0.28605739632064237 0.28605739632064237
0.28744363367744730 0.28744363367744730 0.28744363367744730
0.28880899741668714 0.28880899741668714 0.28880899741668714
0.29015414434035031 0.29015414434035031 0.29015414434035031
0.29147969994391093 0.29147969994391093 0.29147969994391093
0.29278626040267369 0.29278626040267369 0.29278626040267369
0.29407439440162847 0.29407439440162847 0.29407439440162847
0.29534464482344847 0.29534464482344847 0.29534464482344847
0.29659753030782399 0.29659753030782399 0.29659753030782399
0.29783354669364126 0.29783354669364126 0.29783354669364126
0.29905316835460960 0.29905316835460960 0.29905316835460960
0.30025684943759950 0.30025684943759950 0.30025684943759950
0.30144502501220266 0.30144502501220266 0.30144502501220266
0.30261811213906198 0.30261811213906198 0.30261811213906198
0.30377651086377239 0.30377651086377239 0.30377651086377239
0.30492060514257657 0.30492060514257657 0.30492060514257657
0.30605076370542056 0.30605076370542056 0.30605076370542056
0.30716734086137626 0.30716734086137626 0.30716734086137626
0.30827067725107843 0.30827067725107843 0.30827067725107843
0.30936110055025928 0.30936110055025928 0.30936110055025928
0.31043892612826102 0.31043892612826102 0.31043892612826102
0.31150445766485707 0.31150445766485707 0.31150445766485707
0.31255798772859672 0.31255798772859672 0.31255798772859672
0.31359979831952350 0.31359979831952350 0.31359979831952350
0.31463016137887023 0.31463016137887023 0.31463016137887023
0.31564933926812588 0.31564933926812588 0.31564933926812588
0.31665758521968784 0.31665758521968784 0.31665758521968784
0.31765514376110160 0.31765514376110160 0.31765514376110160
0.31864225111472561 0.31864225111472561 0.31864225111472561
0.31961913557452465 0.31961913557452465 0.31961913557452465
0.32058601786156654 0.32058601786156654 0.32058601786156654
0.32154311145964781 0.32154311145964781 0.32154311145964781
0.32249062293236896 0.32249062293236896 0.32249062293236896
0.32342875222288930 0.32342875222288930 0.32342875222288930
0.32435769293750016 0.32435769293750016 0.32435769293750016
0.32527763261403775 0.32527763261403775 0.32527763261403775
0.32618875297612826 0.32618875297612826 0.32618875297612826
0.32709123017414565 0.32709123017414565 0.32709123017414565
0.32798523501369797 0.32798523501369797 0.32798523501369797
0.32887093317244848 0.32887093317244848 0.32887093317244848
0.32974848540594992 0.32974848540594992 0.32974848540594992
0.33061804774317582 0.33061804774317582 0.33061804774317582
0.33147977167233822 0.33147977167233822 0.33147977167233822
0.33233380431764381 0.33233380431764381 0.33233380431764381
0.33318028860737886 0.33318028860737886 0.33318028860737886
0.33401936343400834 0.33401936343400834 0.33401936343400834
0.33485116380654817 0.33485116380654817 0.33485116380654817
0.33567582099586257 0.33567582099586257 0.33567582099586257
0.33649346267308478 0.33649346267308478 0.33649346267308478
0.33730421304168745 0.33730421304168745 0.33730421304168745
0.33810819296348998 0.33810819296348998 0.33810819296348998
0.33890552007894142 0.33890552007894142 0.33890552007894142
0.33969630892201375 0.33969630892201375 0.33969630892201375
0.34048067102997520 0.34048067102997520 0.34048067102997520
0.34125871504827654 0.34125871504827654 0.34125871504827654
0.34203054683091200 0.34203054683091200 0.34203054683091200
0.34279626953641551 0.34279626953641551 0.34279626953641551
0.34355598371968821 0.34355598371968821 0.34355598371968821
0.34430978741997725 0.34430978741997725 0.34430978741997725
0.34505777624510126 0.34505777624510126 0.34505777624510126
0.34580004345217213 0.34580004345217213 0.34580004345217213
0.34653668002495686 0.34653668002495686 0.34653668002495686
0.34726777474806364 0.34726777474806364 0.34726777474806364
0.34799341427810282 0.34799341427810282 0.34799341427810282
0.34871368321198060 0.34871368321198060 0.34871368321198060
0.34942866415241164 0.34942866415241164 0.34942866415241164
0.35013843777089726 0.35013843777089726 0.35013843777089726
0.35084308286815097 0.35084308286815097 0.35084308286815097
0.35154267643219012 0.35154267643219012 0.35154267643219012
0.35223729369419515 0.35223729369419515 0.35223729369419515
0.35292700818215467 0.35292700818215467 0.35292700818215467
0.35361189177254609 0.35361189177254609 0.35361189177254609
0.35429201473997080 0.35429201473997080 0.35429201473997080
0.35496744580498274 0.35496744580498274 0.35496744580498274
0.35563825218011003 0.35563825218011003 0.35563825218011003
0.35630449961419813 0.35630449961419813 0.35630449961419813
0.35696625243504426 0.35696625243504426 0.35696625243504426
0.35762357359059499 0.35762357359059499 0.35762357359059499
0.35827652468856014 0.35827652468856014 0.35827652468856014
0.35892516603462982 0.35892516603462982 0.35892516603462982
0.35956955666935692 0.35956955666935692 0.35956955666935692
0.36020975440368452 0.36020975440368452 0.36020975440368452
0.36084581585326769 0.36084581585326769 0.36084581585326769
0.36147779647156625 0.36147779647156625 0.36147779647156625
0.36210575058181999 0.36210575058181999 0.36210575058181999
0.36272973140789216 0.36272973140789216 0.36272973140789216
0.36334979110409321 0.36334979110409321 0.36334979110409321
0.36396598078397852 0.36396598078397852 0.36396598078397852
0.36457835054813836 0.36457835054813836 0.36457835054813836
0.36518694951112790 0.36518694951112790 0.36518694951112790
0.36579182582746511 0.36579182582746511 0.36579182582746511
0.36639302671677421 0.36639302671677421 0.36639302671677421
0.36699059848808668 0.36699059848808668 0.36699059848808668
0.36758458656338977 0.36758458656338977 0.36758458656338977
0.36817503550039404 0.36817503550039404 0.36817503550039404
0.36876198901455931 0.36876198901455931 0.36876198901455931
0.36934549000042871 0.36934549000042871 0.36934549000042871
0.36992558055230362 0.36992558055230362 0.36992558055230362
0.37050230198422224 0.37050230198422224 0.37050230198422224
0.37107569484936703 0.37107569484936703 0.37107569484936703
0.37164579895882560 0.37164579895882560 0.37164579895882560
0.37221265339980270 0.37221265339980270 0.37221265339980270
0.37277629655326039 0.37277629655326039 0.37277629655326039
0.37333676611099958 0.37333676611099958 0.37333676611099958
0.37389409909226029 0.37389409909226029 0.37389409909226029
0.37444833185980397 0.37444833185980397 0.37444833185980397
0.37499950013552680 0.37499950013552680 0.37499950013552680
0.37554763901557137 0.37554763901557137 0.37554763901557137
0.37609278298504772 0.37609278298504772 0.37609278298504772
0.37663496593226592 0.37663496593226592 0.37663496593226592
0.37717422116261573 0.37717422116261573 0.37717422116261573
0.37771058141194036 0.37771058141194036 0.37771058141194036
0.37824407885969091 0.37824407885969091 0.37824407885969091
0.37877474514149956 0.37877474514149956 0.37877474514149956
0.37930261136155979 0.37930261136155979 0.37930261136155979
0.37982770810459882 0.37982770810459882 0.37982770810459882
0.38035006544743799 0.38035006544743799 0.38035006544743799
0.38086971297039557 0.38086971297039557 0.38086971297039557
0.38138667976819962 0.38138667976819962 0.38138667976819962
0.38190099446070719 0.38190099446070719 0.38190099446070719
0.38241268520329663 0.38241268520329663 0.38241268520329663
0.38292177969692653 0.38292177969692653 0.38292177969692653
0.38342830519807347 0.38342830519807347 0.38342830519807347
0.38393228852814743 0.38393228852814743 0.38393228852814743
0.38443375608292851 0.38443375608292851 0.38443375608292851
0.38493273384156501 0.38493273384156501 0.38493273384156501
0.38542924737537065 0.38542924737537065 0.38542924737537065
0.38592332185647088 0.38592332185647088 0.38592332185647088
0.38641498206610642 0.38641498206610642 0.38641498206610642
0.38690425240275483 0.38690425240275483 0.38690425240275483
0.38739115689014247 0.38739115689014247 0.38739115689014247
0.38787571918487129 0.38787571918487129 0.38787571918487129
0.38835796258398236 0.38835796258398236 0.38835796258398236
0.38883791003228341 0.38883791003228341 0.38883791003228341
0.38931558412945882 0.38931558412945882 0.38931558412945882
0.38979100713710496 0.38979100713710496 0.38979100713710496
0.39026420098539943 0.39026420098539943 0.39026420098539943
0.39073518727982115 0.39073518727982115 0.39073518727982115
0.39120398730752204 0.39120398730752204 0.39120398730752204
0.39167062204366837 0.39167062204366837 0.39167062204366837
0.39213511215753533 0.39213511215753533 0.39213511215753533
0.39259747801852135 0.39259747801852135 0.39259747801852135
0.39305773970193891 0.39305773970193891 0.39305773970193891
0.39351591699473443 0.39351591699473443 0.39351591699473443
0.39397202940105003 0.39397202940105003 0.39397202940105003
0.39442609614764845 0.39442609614764845 0.39442609614764845
0.39487813618913742 0.39487813618913742 0.39487813618913742
0.39532816821323519 0.39532816821323519 0.39532816821323519
0.39577621064573515 0.39577621064573515 0.39577621064573515
0.39622228165545265 0.39622228165545265 0.39622228165545265
0.39666639915903956 0.39666639915903956 0.39666639915903956
0.39710858082567746 0.39710858082567746 0.39710858082567746
0.39754884408162194 0.39754884408162194 0.39754884408162194
0.39798720611473232 0.39798720611473232 0.39798720611473232
0.39842368387881955 0.39842368387881955 0.39842368387881955
0.39885829409793544 0.39885829409793544 0.39885829409793544
0.39929105327052056 0.39929105327052056 0.39929105327052056
0.39972197767352791 0.39972197767352791 0.39972197767352791
0.40015108336634025 0.40015108336634025 0.40015108336634025
0.40057838619477909 0.40057838619477909 0.40057838619477909
0.40100390179478251 0.40100390179478251 0.40100390179478251
0.40142764559624872 0.40142764559624872 0.40142764559624872
0.40184963282659691 0.40184963282659691 0.40184963282659691
0.40226987851440194 0.40226987851440194 0.40226987851440194
0.40268839749278429 0.40268839749278429 0.40268839749278429
0.40310520440288861 0.40310520440288861 0.40310520440288861
0.40352031369723140 0.40352031369723140 0.40352031369723140
0.40393373964289825 0.40393373964289825 0.40393373964289825
0.40434549632474942 0.40434549632474942 0.40434549632474942
0.40475559764858327 0.40475559764858327 0.40475559764858327
0.40516405734415750 0.40516405734415750 0.40516405734415750
0.40557088896815452 0.40557088896815452 0.40557088896815452
0.40597610590715288 0.40597610590715288 0.40597610590715288
0.40637972138049233 0.40637972138049233 0.40637972138049233
0.40678174844301707 0.40678174844301707 0.40678174844301707
0.40718219998788263 0.40718219998788263 0.40718219998788263
0.40758108874920895 0.40758108874920895 0.40758108874920895
0.40797842730471201 0.40797842730471201 0.40797842730471201
0.40837422807829832 0.40837422807829832 0.40837422807829832
0.40876850334258136 0.40876850334258136 0.40876850334258136
0.40916126522134044 0.40916126522134044 0.40916126522134044
0.40955252569195344 0.40955252569195344 0.40955252569195344
0.40994229658774445 0.40994229658774445 0.40994229658774445
0.41033058960036489 0.41033058960036489 0.41033058960036489
0.41071741628200431 0.41071741628200431 0.41071741628200431
0.41110278804764294 0.41110278804764294 0.41110278804764294
0.41148671617725585 0.41148671617725585 0.41148671617725585
0.41186921181793723 0.41186921181793723 0.41186921181793723
0.41225028598599200 0.41225028598599200 0.41225028598599200
0.41262994956903043 0.41262994956903043 0.41262994956903043
0.41300821332792920 0.41300821332792920 0.41300821332792920
0.41338508789886319 0.41338508789886319 0.41338508789886319
0.41376058379520270 0.41376058379520270 0.41376058379520270
0.41413471140944613 0.41413471140944613 0.41413471140944613
0.41450748101507195 0.41450748101507195 0.41450748101507195
0.41487890276833672 0.41487890276833672 0.41487890276833672
0.41524898671014809 0.41524898671014809 0.41524898671014809
0.41561774276772551 0.41561774276772551 0.41561774276772551
0.41598518075639246 0.41598518075639246 0.41598518075639246
0.41635131038125844 0.41635131038125844 0.41635131038125844
0.41671614123884737 0.41671614123884737 0.41671614123884737
0.41707968281877228 0.41707968281877228 0.41707968281877228
0.41744194450527827 0.41744194450527827 0.41744194450527827
0.41780293557887832 0.41780293557887832 0.41780293557887832
0.41816266521782308 0.41816266521782308 0.41816266521782308
0.41852114249966232 0.41852114249966232 0.41852114249966232
0.41887837640270925 0.41887837640270925 0.41887837640270925
0.41923437580749251 0.41923437580749251 0.41923437580749251
0.41958914949819842 0.41958914949819842 0.41958914949819842
0.41994270616403651 0.41994270616403651 0.41994270616403651
0.42029505440066550 0.42029505440066550 0.42029505440066550
0.42064620271150038 0.42064620271150038 0.42064620271150038
0.42099615950909397 0.42099615950909397 0.42099615950909397
0.42134493311637644 0.42134493311637644 0.42134493311637644
0.42169253176796823 0.42169253176796823 0.42169253176796823
0.42203896361146193 0.42203896361146193 0.42203896361146193
0.42238423670859387 0.42238423670859387 0.42238423670859387
0.42272835903650369 0.42272835903650369 0.42272835903650369
0.42307133848892348 0.42307133848892348 0.42307133848892348
0.42341318287733820 0.42341318287733820 0.42341318287733820
0.42375389993211293 0.42375389993211293 0.42375389993211293
0.42409349730366480 0.42409349730366480 0.42409349730366480
0.42443198256354142 0.42443198256354142 0.42443198256354142
0.42476936320553593 0.42476936320553593 0.42476936320553593
0.42510564664671874 0.42510564664671874 0.42510564664671874
0.42544084022855078 0.42544084022855078 0.42544084022855078
0.42577495121784092 0.42577495121784092 0.42577495121784092
0.42610798680783329 0.42610798680783329 0.42610798680783329
0.42643995411916846 0.42643995411916846 0.42643995411916846
0.42677086020089855 0.42677086020089855 0.42677086020089855
0.42710071203140171 0.42710071203140171 0.42710071203140171
0.42742951651936534 0.42742951651936534 0.42742951651936534
0.42775728050472822 0.42775728050472822 0.42775728050472822
0.42808401075958930 0.42808401075958930 0.42808401075958930
0.42840971398910088 0.42840971398910088 0.42840971398910088
0.42873439683234715 0.42873439683234715 0.42873439683234715
0.42905806586324430 0.42905806586324430 0.42905806586324430
0.42938072759139112 0.42938072759139112 0.42938072759139112
0.42970238846290765 0.42970238846290765 0.42970238846290765
0.43002305486126791 0.43002305486126791 0.43002305486126791
0.43034273310810217 0.43034273310810217 0.43034273310810217
0.43066142946402325 0.43066142946402325 0.43066142946402325
0.43097915012940985 0.43097915012940985 0.43097915012940985
0.43129590124516859 0.43129590124516859 0.43129590124516859
0.43161168889350549 0.43161168889350549 0.43161168889350549
0.43192651909872171 0.43192651909872171 0.43192651909872171
0.43224039782788859 0.43224039782788859 0.43224039782788859
0.43255333099159626 0.43255333099159626 0.43255333099159626
0.43286532444469533 0.43286532444469533 0.43286532444469533
0.43317638398696323 0.43317638398696323 0.43317638398696323
0.43348651536386268 0.43348651536386268 0.43348651536386268
0.43379572426713237 0.43379572426713237 0.43379572426713237
0.43410401633554208 0.43410401633554208 0.43410401633554208
0.43441139715552601 0.43441139715552601 0.43441139715552601
0.43471787226179609 0.43471787226179609 0.43471787226179609
0.43502344713805541 0.43502344713805541 0.43502344713805541
0.43532812721758407 0.43532812721758407 0.43532812721758407
0.43563191788384426 0.43563191788384426 0.43563191788384426
0.43593482447116100 0.43593482447116100 0.43593482447116100
0.43623685226524478 0.43623685226524478 0.43623685226524478
0.43653800650382835 0.43653800650382835 0.43653800650382835
0.43683829237726446 0.43683829237726446 0.43683829237726446
0.43713771502905618 0.43713771502905618 0.43713771502905618
0.43743627955646358 0.43743627955646358 0.43743627955646358
0.43773399101105065 0.43773399101105065 0.43773399101105065
0.43803085439920791 0.43803085439920791 0.43803085439920791
0.43832687468272669 0.43832687468272669 0.43832687468272669
0.43862205677934551 0.43862205677934551 0.43862205677934551
0.43891640556320843 0.43891640556320843 0.43891640556320843
0.43920992586548069 0.43920992586548069 0.43920992586548069
0.43950262247473720 0.43950262247473720 0.43950262247473720
0.43979450013758931 0.43979450013758931 0.43979450013758931
0.44008556355909567 0.44008556355909567 0.44008556355909567
0.44037581740327153 0.44037581740327153 0.44037581740327153
0.44066526629357616 0.44066526629357616 0.44066526629357616
0.44095391481338597 0.44095391481338597 0.44095391481338597
0.44124176750646454 0.44124176750646454 0.44124176750646454
0.44152882887737938 0.44152882887737938 0.44152882887737938
0.44181510339203672 0.44181510339203672 0.44181510339203672
0.44210059547805675 0.44210059547805675 0.44210059547805675
0.44238530952522798 0.44238530952522798 0.44238530952522798
0.44266924988596640 0.44266924988596640 0.44266924988596640
0.44295242087571979 0.44295242087571979 0.44295242087571979
0.44323482677339288 0.44323482677339288 0.44323482677339288
0.44351647182176074 0.44351647182176074 0.44351647182176074
0.44379736022790212 0.44379736022790212 0.44379736022790212
0.44407749616356273 0.44407749616356273 0.44407749616356273
0.44435688376556937 0.44435688376556937 0.44435688376556937
0.44463552713623661 0.44463552713623661 0.44463552713623661
0.44491343034373415 0.44491343034373415 0.44491343034373415
0.44519059742248551 0.44519059742248551 0.44519059742248551
0.44546703237352342 0.44546703237352342 0.44546703237352342
0.44574273916487267 0.44574273916487267 0.44574273916487267
0.44601772173190507 0.44601772173190507 0.44601772173190507
0.44629198397772940 0.44629198397772940 0.44629198397772940
0.44656552977351049 0.44656552977351049 0.44656552977351049
0.44683836295881907 0.44683836295881907 0.44683836295881907
0.44711048734202835 0.44711048734202835 0.44711048734202835
0.44738190670058020 0.44738190670058020 0.44738190670058020
0.44765262478139661 0.44765262478139661 0.44765262478139661
0.44792264530114023 0.44792264530114023 0.44792264530114023
0.44819197194659682 0.44819197194659682 0.44819197194659682
0.44846060837497009 0.44846060837497009 0.44846060837497009
0.44872855821421087 0.44872855821421087 0.44872855821421087
0.44899582506332208 0.44899582506332208 0.44899582506332208
0.44926241249266641 0.44926241249266641 0.44926241249266641
0.44952832404429277 0.44952832404429277 0.44952832404429277
0.44979356323221859 0.44979356323221859 0.44979356323221859
0.45005813354271801 0.45005813354271801 0.45005813354271801
0.45032203843465757 0.45032203843465757 0.45032203843465757
0.45058528133972653 0.45058528133972653 0.45058528133972653
0.45084786566278201 0.45084786566278201 0.45084786566278201
0.45110979478208457 0.45110979478208457 0.45110979478208457
0.45137107204960497 0.45137107204960497 0.45137107204960497
0.45163170079126502 0.45163170079126502 0.45163170079126502
0.45189168430726528 0.45189168430726528 0.45189168430726528
0.45215102587231132 0.45215102587231132 0.45215102587231132
0.45240972873586216 0.45240972873586216 0.45240972873586216
0.45266779612244562 0.45266779612244562 0.45266779612244562
0.45292523123185569 0.45292523123185569 0.45292523123185569
0.45318203723946821 0.45318203723946821 0.45318203723946821
0.45343821729642331 0.45343821729642331 0.45343821729642331
0.45369377452994170 0.45369377452994170 0.45369377452994170
0.45394871204349119 0.45394871204349119 0.45394871204349119
0.45420303291711972 0.45420303291711972 0.45420303291711972
0.45445674020761845 0.45445674020761845 0.45445674020761845
0.45470983694879458 0.45470983694879458 0.45470983694879458
0.45496232615167070 0.45496232615167070 0.45496232615167070
0.45521421080477442 0.45521421080477442 0.45521421080477442
0.45546549387427693 0.45546549387427693 0.45546549387427693
0.45571617830430683 0.45571617830430683 0.45571617830430683
0.45596626701712528 0.45596626701712528 0.45596626701712528
0.45621576291330251 0.45621576291330251 0.45621576291330251
0.45646466887203790 0.45646466887203790 0.45646466887203790
0.45671298775127578 0.45671298775127578 0.45671298775127578
0.45696072238796476 0.45696072238796476 0.45696072238796476
0.45720787559823778 0.45720787559823778 0.45720787559823778
0.45745445017765868 0.45745445017765868 0.45745445017765868
0.45770044890135370 0.45770044890135370 0.45770044890135370
0.45794587452430985 0.45794587452430985 0.45794587452430985
0.45819072978145320 0.45819072978145320 0.45819072978145320
