DaVinci_ST2084_1D_LUT_65536/ST2084_PQ_to_Linear_1D_65536.cube
TITLE "ST2084 PQ to Linear Y=L/10000 - 1D 65536"
LUT_1D_SIZE 65536
DOMAIN_MIN 0.00000000000000000 0.00000000000000000 0.00000000000000000
DOMAIN_MAX 1.00000000000000000 1.00000000000000000 1.00000000000000000

0.00000000000000000 0.00000000000000000 0.00000000000000000
0.00000000000116262 0.00000000000116262 0.00000000000116262
0.00000000000618498 0.00000000000618498 0.00000000000618498
0.00000000001493949 0.00000000001493949 0.00000000001493949
0.00000000002705193 0.00000000002705193 0.00000000002705193
0.00000000004222965 0.00000000004222965 0.00000000004222965
0.00000000006024599 0.00000000006024599 0.00000000006024599
0.00000000008092068 0.00000000008092068 0.00000000008092068
0.00000000010410666 0.00000000010410666 0.00000000010410666
0.00000000012968127 0.00000000012968127 0.00000000012968127
0.00000000015754040 0.00000000015754040 0.00000000015754040
0.00000000018759432 0.00000000018759432 0.00000000018759432
0.00000000021976474 0.00000000021976474 0.00000000021976474
0.00000000025398265 0.00000000025398265 0.00000000025398265
0.00000000029018662 0.00000000029018662 0.00000000029018662
0.00000000032832158 0.00000000032832158 0.00000000032832158
0.00000000036833778 0.00000000036833778 0.00000000036833778
0.00000000041019007 0.00000000041019007 0.00000000041019007
0.00000000045383717 0.00000000045383717 0.00000000045383717
0.00000000049924124 0.00000000049924124 0.00000000049924124
0.00000000054636738 0.00000000054636738 0.00000000054636738
0.00000000059518333 0.00000000059518333 0.00000000059518333
0.00000000064565912 0.00000000064565912 0.00000000064565912
0.00000000069776684 0.00000000069776684 0.00000000069776684
0.00000000075148043 0.00000000075148043 0.00000000075148043
0.00000000080677547 0.00000000080677547 0.00000000080677547
0.00000000086362904 0.00000000086362904 0.00000000086362904
0.00000000092201958 0.00000000092201958 0.00000000092201958
0.00000000098192674 0.00000000098192674 0.00000000098192674
0.00000000104333129 0.00000000104333129 0.00000000104333129
0.00000000110621505 0.00000000110621505 0.00000000110621505
0.00000000117056075 0.00000000117056075 0.00000000117056075
0.00000000123635200 0.00000000123635200 0.00000000123635200
0.00000000130357322 0.00000000130357322 0.00000000130357322
0.00000000137220955 0.00000000137220955 0.00000000137220955
0.00000000144224682 0.00000000144224682 0.00000000144224682
0.00000000151367150 0.00000000151367150 0.00000000151367150
0.00000000158647065 0.00000000158647065 0.00000000158647065
0.00000000166063189 0.00000000166063189 0.00000000166063189
0.00000000173614335 0.00000000173614335 0.00000000173614335
0.00000000181299364 0.00000000181299364 0.00000000181299364
0.00000000189117183 0.00000000189117183 0.00000000189117183
0.00000000197066740 0.00000000197066740 0.00000000197066740
0.00000000205147025 0.00000000205147025 0.00000000205147025
0.00000000213357065 0.00000000213357065 0.00000000213357065
0.00000000221695923 0.00000000221695923 0.00000000221695923
0.00000000230162693 0.00000000230162693 0.00000000230162693
0.00000000238756505 0.00000000238756505 0.00000000238756505
0.00000000247476514 0.00000000247476514 0.00000000247476514
0.00000000256321908 0.00000000256321908 0.00000000256321908
0.00000000265291900 0.00000000265291900 0.00000000265291900
0.00000000274385728 0.00000000274385728 0.00000000274385728
0.00000000283602655 0.00000000283602655 0.00000000283602655
0.00000000292941967 0.00000000292941967 0.00000000292941967
0.00000000302402973 0.00000000302402973 0.00000000302402973
0.00000000311985002 0.00000000311985002 0.00000000311985002
0.00000000321687404 0.00000000321687404 0.00000000321687404
0.00000000331509546 0.00000000331509546 0.00000000331509546
0.00000000341450817 0.00000000341450817 0.00000000341450817
0.00000000351510619 0.00000000351510619 0.00000000351510619
0.00000000361688375 0.00000000361688375 0.00000000361688375
0.00000000371983521 0.00000000371983521 0.00000000371983521
0.00000000382395510 0.00000000382395510 0.00000000382395510
0.00000000392923810 0.00000000392923810 0.00000000392923810
0.00000000403567902 0.00000000403567902 0.00000000403567902
0.00000000414327280 0.00000000414327280 0.00000000414327280
0.00000000425201454 0.00000000425201454 0.00000000425201454
0.00000000436189943 0.00000000436189943 0.00000000436189943
0.00000000447292281 0.00000000447292281 0.00000000447292281
0.00000000458508013 0.00000000458508013 0.00000000458508013
0.00000000469836693 0.00000000469836693 0.00000000469836693
0.00000000481277888 0.00000000481277888 0.00000000481277888
0.00000000492831175 0.00000000492831175 0.00000000492831175
0.00000000504496141 0.00000000504496141 0.00000000504496141
0.00000000516272383 0.00000000516272383 0.00000000516272383
0.00000000528159506 0.00000000528159506 0.00000000528159506
0.00000000540157126 0.00000000540157126 0.00000000540157126
0.00000000552264866 0.00000000552264866 0.00000000552264866
0.00000000564482358 0.00000000564482358 0.00000000564482358
0.00000000576809243 0.00000000576809243 0.00000000576809243
0.00000000589245169 0.00000000589245169 0.00000000589245169
0.00000000601789792 0.00000000601789792 0.00000000601789792
0.00000000614442775 0.00000000614442775 0.00000000614442775
0.00000000627203789 0.00000000627203789 0.00000000627203789
0.00000000640072511 0.00000000640072511 0.00000000640072511
0.00000000653048625 0.00000000653048625 0.00000000653048625
0.00000000666131822 0.00000000666131822 0.00000000666131822
0.00000000679321800 0.00000000679321800 0.00000000679321800
0.00000000692618260 0.00000000692618260 0.00000000692618260
0.00000000706020914 0.00000000706020914 0.00000000706020914
0.00000000719529475 0.00000000719529475 0.00000000719529475
0.00000000733143665 0.00000000733143665 0.00000000733143665
0.00000000746863208 0.00000000746863208 0.00000000746863208
0.00000000760687838 0.00000000760687838 0.00000000760687838
0.00000000774617291 0.00000000774617291 0.00000000774617291
0.00000000788651308 0.00000000788651308 0.00000000788651308
0.00000000802789637 0.00000000802789637 0.00000000802789637
0.00000000817032027 0.00000000817032027 0.00000000817032027
0.00000000831378236 0.00000000831378236 0.00000000831378236
0.00000000845828025 0.00000000845828025 0.00000000845828025
0.00000000860381157 0.00000000860381157 0.00000000860381157
0.00000000875037403 0.00000000875037403 0.00000000875037403
0.00000000889796536 0.00000000889796536 0.00000000889796536
0.00000000904658333 0.00000000904658333 0.00000000904658333
0.00000000919622576 0.00000000919622576 0.00000000919622576
0.00000000934689050 0.00000000934689050 0.00000000934689050
0.00000000949857546 0.00000000949857546 0.00000000949857546
0.00000000965127854 0.00000000965127854 0.00000000965127854
0.00000000980499773 0.00000000980499773 0.00000000980499773
0.00000000995973101 0.00000000995973101 0.00000000995973101
0.00000001011547643 0.00000001011547643 0.00000001011547643
0.00000001027223206 0.00000001027223206 0.00000001027223206
0.00000001042999598 0.00000001042999598 0.00000001042999598
0.00000001058876635 0.00000001058876635 0.00000001058876635
0.00000001074854131 0.00000001074854131 0.00000001074854131
0.00000001090931907 0.00000001090931907 0.00000001090931907
0.00000001107109785 0.00000001107109785 0.00000001107109785
0.00000001123387590 0.00000001123387590 0.00000001123387590
0.00000001139765151 0.00000001139765151 0.00000001139765151
0.00000001156242298 0.00000001156242298 0.00000001156242298
0.00000001172818866 0.00000001172818866 0.00000001172818866
0.00000001189494690 0.00000001189494690 0.00000001189494690
0.00000001206269611 0.00000001206269611 0.00000001206269611
0.00000001223143469 0.00000001223143469 0.00000001223143469
0.00000001240116109 0.00000001240116109 0.00000001240116109
0.00000001257187377 0.00000001257187377 0.00000001257187377
0.00000001274357122 0.00000001274357122 0.00000001274357122
0.00000001291625196 0.00000001291625196 0.00000001291625196
0.00000001308991452 0.00000001308991452 0.00000001308991452
0.00000001326455746 0.00000001326455746 0.00000001326455746
0.00000001344017936 0.00000001344017936 0.00000001344017936
0.00000001361677883 0.00000001361677883 0.00000001361677883
0.00000001379435449 0.00000001379435449 0.00000001379435449
0.00000001397290499 0.00000001397290499 0.00000001397290499
0.00000001415242899 0.00000001415242899 0.00000001415242899
0.00000001433292517 0.00000001433292517 0.00000001433292517
0.00000001451439225 0.00000001451439225 0.00000001451439225
0.00000001469682894 0.00000001469682894 0.00000001469682894
0.00000001488023400 0.00000001488023400 0.00000001488023400
0.00000001506460618 0.00000001506460618 0.00000001506460618
0.00000001524994426 0.00000001524994426 0.00000001524994426
0.00000001543624705 0.00000001543624705 0.00000001543624705
0.00000001562351335 0.00000001562351335 0.00000001562351335
0.00000001581174201 0.00000001581174201 0.00000001581174201
0.00000001600093186 0.00000001600093186 0.00000001600093186
0.00000001619108179 0.00000001619108179 0.00000001619108179
0.00000001638219067 0.00000001638219067 0.00000001638219067
0.00000001657425739 0.00000001657425739 0.00000001657425739
0.00000001676728089 0.00000001676728089 0.00000001676728089
0.00000001696126008 0.00000001696126008 0.00000001696126008
0.00000001715619391 0.00000001715619391 0.00000001715619391
0.00000001735208135 0.00000001735208135 0.00000001735208135
0.00000001754892136 0.00000001754892136 0.00000001754892136
0.00000001774671294 0.00000001774671294 0.00000001774671294
0.00000001794545509 0.00000001794545509 0.00000001794545509
0.00000001814514684 0.00000001814514684 0.00000001814514684
0.00000001834578720 0.00000001834578720 0.00000001834578720
0.00000001854737523 0.00000001854737523 0.00000001854737523
0.00000001874990998 0.00000001874990998 0.00000001874990998
0.00000001895339053 0.00000001895339053 0.00000001895339053
0.00000001915781596 0.00000001915781596 0.00000001915781596
0.00000001936318537 0.00000001936318537 0.00000001936318537
0.00000001956949786 0.00000001956949786 0.00000001956949786
0.00000001977675257 0.00000001977675257 0.00000001977675257
0.00000001998494861 0.00000001998494861 0.00000001998494861
0.00000002019408514 0.00000002019408514 0.00000002019408514
0.00000002040416132 0.00000002040416132 0.00000002040416132
0.00000002061517630 0.00000002061517630 0.00000002061517630
0.00000002082712928 0.00000002082712928 0.00000002082712928
0.00000002104001944 0.00000002104001944 0.00000002104001944
0.00000002125384599 0.00000002125384599 0.00000002125384599
0.00000002146860814 0.00000002146860814 0.00000002146860814
0.00000002168430510 0.00000002168430510 0.00000002168430510
0.00000002190093613 0.00000002190093613 0.00000002190093613
0.00000002211850045 0.00000002211850045 0.00000002211850045
0.00000002233699732 0.00000002233699732 0.00000002233699732
0.00000002255642601 0.00000002255642601 0.00000002255642601
0.00000002277678579 0.00000002277678579 0.00000002277678579
0.00000002299807594 0.00000002299807594 0.00000002299807594
0.00000002322029576 0.00000002322029576 0.00000002322029576
0.00000002344344456 0.00000002344344456 0.00000002344344456
0.00000002366752163 0.00000002366752163 0.00000002366752163
0.00000002389252631 0.00000002389252631 0.00000002389252631
0.00000002411845792 0.00000002411845792 0.00000002411845792
0.00000002434531580 0.00000002434531580 0.00000002434531580
0.00000002457309930 0.00000002457309930 0.00000002457309930
0.00000002480180778 0.00000002480180778 0.00000002480180778
0.00000002503144060 0.00000002503144060 0.00000002503144060
0.00000002526199713 0.00000002526199713 0.00000002526199713
0.00000002549347676 0.00000002549347676 0.00000002549347676
0.00000002572587887 0.00000002572587887 0.00000002572587887
0.00000002595920286 0.00000002595920286 0.00000002595920286
0.00000002619344815 0.00000002619344815 0.00000002619344815
0.00000002642861413 0.00000002642861413 0.00000002642861413
0.00000002666470023 0.00000002666470023 0.00000002666470023
0.00000002690170589 0.00000002690170589 0.00000002690170589
0.00000002713963054 0.00000002713963054 0.00000002713963054
0.00000002737847361 0.00000002737847361 0.00000002737847361
0.00000002761823457 0.00000002761823457 0.00000002761823457
0.00000002785891287 0.00000002785891287 0.00000002785891287
0.00000002810050797 0.00000002810050797 0.00000002810050797
0.00000002834301936 0.00000002834301936 0.00000002834301936
0.00000002858644650 0.00000002858644650 0.00000002858644650
0.00000002883078888 0.00000002883078888 0.00000002883078888
0.00000002907604600 0.00000002907604600 0.00000002907604600
0.00000002932221735 0.00000002932221735 0.00000002932221735
0.00000002956930245 0.00000002956930245 0.00000002956930245
0.00000002981730081 0.00000002981730081 0.00000002981730081
0.00000003006621193 0.00000003006621193 0.00000003006621193
0.00000003031603536 0.00000003031603536 0.00000003031603536
0.00000003056677062 0.00000003056677062 0.00000003056677062
0.00000003081841725 0.00000003081841725 0.00000003081841725
0.00000003107097479 0.00000003107097479 0.00000003107097479
0.00000003132444279 0.00000003132444279 0.00000003132444279
0.00000003157882081 0.00000003157882081 0.00000003157882081
0.00000003183410842 0.00000003183410842 0.00000003183410842
0.00000003209030517 0.00000003209030517 0.00000003209030517
0.00000003234741064 0.00000003234741064 0.00000003234741064
0.00000003260542442 0.00000003260542442 0.00000003260542442
0.00000003286434608 0.00000003286434608 0.00000003286434608
0.00000003312417522 0.00000003312417522 0.00000003312417522
0.00000003338491143 0.00000003338491143 0.00000003338491143
0.00000003364655431 0.00000003364655431 0.00000003364655431
0.00000003390910348 0.00000003390910348 0.00000003390910348
0.00000003417255853 0.00000003417255853 0.00000003417255853
0.00000003443691909 0.00000003443691909 0.00000003443691909
0.00000003470218479 0.00000003470218479 0.00000003470218479
0.00000003496835524 0.00000003496835524 0.00000003496835524
0.00000003523543008 0.00000003523543008 0.00000003523543008
0.00000003550340895 0.00000003550340895 0.00000003550340895
0.00000003577229149 0.00000003577229149 0.00000003577229149
0.00000003604207734 0.00000003604207734 0.00000003604207734
0.00000003631276616 0.00000003631276616 0.00000003631276616
0.00000003658435761 0.00000003658435761 0.00000003658435761
0.00000003685685135 0.00000003685685135 0.00000003685685135
0.00000003713024703 0.00000003713024703 0.00000003713024703
0.00000003740454434 0.00000003740454434 0.00000003740454434
0.00000003767974295 0.00000003767974295 0.00000003767974295
0.00000003795584253 0.00000003795584253 0.00000003795584253
0.00000003823284277 0.00000003823284277 0.00000003823284277
0.00000003851074337 0.00000003851074337 0.00000003851074337
0.00000003878954401 0.00000003878954401 0.00000003878954401
0.00000003906924439 0.00000003906924439 0.00000003906924439
0.00000003934984420 0.00000003934984420 0.00000003934984420
0.00000003963134317 0.00000003963134317 0.00000003963134317
0.00000003991374099 0.00000003991374099 0.00000003991374099
0.00000004019703738 0.00000004019703738 0.00000004019703738
0.00000004048123206 0.00000004048123206 0.00000004048123206
0.00000004076632475 0.00000004076632475 0.00000004076632475
0.00000004105231518 0.00000004105231518 0.00000004105231518
0.00000004133920307 0.00000004133920307 0.00000004133920307
0.00000004162698816 0.00000004162698816 0.00000004162698816
0.00000004191567019 0.00000004191567019 0.00000004191567019
0.00000004220524890 0.00000004220524890 0.00000004220524890
0.00000004249572403 0.00000004249572403 0.00000004249572403
0.00000004278709534 0.00000004278709534 0.00000004278709534
0.00000004307936257 0.00000004307936257 0.00000004307936257
0.00000004337252548 0.00000004337252548 0.00000004337252548
0.00000004366658384 0.00000004366658384 0.00000004366658384
0.00000004396153740 0.00000004396153740 0.00000004396153740
0.00000004425738594 0.00000004425738594 0.00000004425738594
0.00000004455412922 0.00000004455412922 0.00000004455412922
0.00000004485176701 0.00000004485176701 0.00000004485176701
0.00000004515029911 0.00000004515029911 0.00000004515029911
0.00000004544972528 0.00000004544972528 0.00000004544972528
0.00000004575004531 0.00000004575004531 0.00000004575004531
0.00000004605125899 0.00000004605125899 0.00000004605125899
0.00000004635336610 0.00000004635336610 0.00000004635336610
0.00000004665636646 0.00000004665636646 0.00000004665636646
0.00000004696025984 0.00000004696025984 0.00000004696025984
0.00000004726504606 0.00000004726504606 0.00000004726504606
0.00000004757072492 0.00000004757072492 0.00000004757072492
0.00000004787729622 0.00000004787729622 0.00000004787729622
0.00000004818475977 0.00000004818475977 0.00000004818475977
0.00000004849311539 0.00000004849311539 0.00000004849311539
0.00000004880236290 0.00000004880236290 0.00000004880236290
0.00000004911250211 0.00000004911250211 0.00000004911250211
0.00000004942353284 0.00000004942353284 0.00000004942353284
0.00000004973545493 0.00000004973545493 0.00000004973545493
0.00000005004826820 0.00000005004826820 0.00000005004826820
0.00000005036197248 0.00000005036197248 0.00000005036197248
0.00000005067656760 0.00000005067656760 0.00000005067656760
0.00000005099205341 0.00000005099205341 0.00000005099205341
0.00000005130842974 0.00000005130842974 0.00000005130842974
0.00000005162569644 0.00000005162569644 0.00000005162569644
0.00000005194385335 0.00000005194385335 0.00000005194385335
0.00000005226290032 0.00000005226290032 0.00000005226290032
0.00000005258283720 0.00000005258283720 0.00000005258283720
0.00000005290366384 0.00000005290366384 0.00000005290366384
0.00000005322538010 0.00000005322538010 0.00000005322538010
0.00000005354798585 0.00000005354798585 0.00000005354798585
0.00000005387148094 0.00000005387148094 0.00000005387148094
0.00000005419586523 0.00000005419586523 0.00000005419586523
0.00000005452113860 0.00000005452113860 0.00000005452113860
0.00000005484730091 0.00000005484730091 0.00000005484730091
0.00000005517435203 0.00000005517435203 0.00000005517435203
0.00000005550229185 0.00000005550229185 0.00000005550229185
0.00000005583112023 0.00000005583112023 0.00000005583112023
0.00000005616083706 0.00000005616083706 0.00000005616083706
0.00000005649144222 0.00000005649144222 0.00000005649144222
0.00000005682293559 0.00000005682293559 0.00000005682293559
0.00000005715531706 0.00000005715531706 0.00000005715531706
0.00000005748858652 0.00000005748858652 0.00000005748858652
0.00000005782274386 0.00000005782274386 0.00000005782274386
0.00000005815778897 0.00000005815778897 0.00000005815778897
0.00000005849372176 0.00000005849372176 0.00000005849372176
0.00000005883054212 0.00000005883054212 0.00000005883054212
0.00000005916824994 0.00000005916824994 0.00000005916824994
0.00000005950684515 0.00000005950684515 0.00000005950684515
0.00000005984632763 0.00000005984632763 0.00000005984632763
0.00000006018669730 0.00000006018669730 0.00000006018669730
0.00000006052795406 0.00000006052795406 0.00000006052795406
0.00000006087009784 0.00000006087009784 0.00000006087009784
0.00000006121312854 0.00000006121312854 0.00000006121312854
0.00000006155704608 0.00000006155704608 0.00000006155704608
0.00000006190185037 0.00000006190185037 0.00000006190185037
0.00000006224754135 0.00000006224754135 0.00000006224754135
0.00000006259411893 0.00000006259411893 0.00000006259411893
0.00000006294158304 0.00000006294158304 0.00000006294158304
0.00000006328993360 0.00000006328993360 0.00000006328993360
0.00000006363917054 0.00000006363917054 0.00000006363917054
0.00000006398929380 0.00000006398929380 0.00000006398929380
0.00000006434030330 0.00000006434030330 0.00000006434030330
0.00000006469219899 0.00000006469219899 0.00000006469219899
0.00000006504498080 0.00000006504498080 0.00000006504498080
0.00000006539864866 0.00000006539864866 0.00000006539864866
0.00000006575320253 0.00000006575320253 0.00000006575320253
0.00000006610864233 0.00000006610864233 0.00000006610864233
0.00000006646496802 0.00000006646496802 0.00000006646496802
0.00000006682217955 0.00000006682217955 0.00000006682217955
0.00000006718027686 0.00000006718027686 0.00000006718027686
0.00000006753925990 0.00000006753925990 0.00000006753925990
0.00000006789912863 0.00000006789912863 0.00000006789912863
0.00000006825988300 0.00000006825988300 0.00000006825988300
0.00000006862152296 0.00000006862152296 0.00000006862152296
0.00000006898404847 0.00000006898404847 0.00000006898404847
0.00000006934745950 0.00000006934745950 0.00000006934745950
0.00000006971175600 0.00000006971175600 0.00000006971175600
0.00000007007693794 0.00000007007693794 0.00000007007693794
0.00000007044300529 0.00000007044300529 0.00000007044300529
0.00000007080995800 0.00000007080995800 0.00000007080995800
0.00000007117779605 0.00000007117779605 0.00000007117779605
0.00000007154651941 0.00000007154651941 0.00000007154651941
0.00000007191612804 0.00000007191612804 0.00000007191612804
0.00000007228662194 0.00000007228662194 0.00000007228662194
0.00000007265800106 0.00000007265800106 0.00000007265800106
0.00000007303026538 0.00000007303026538 0.00000007303026538
0.00000007340341489 0.00000007340341489 0.00000007340341489
0.00000007377744956 0.00000007377744956 0.00000007377744956
0.00000007415236939 0.00000007415236939 0.00000007415236939
0.00000007452817434 0.00000007452817434 0.00000007452817434
0.00000007490486440 0.00000007490486440 0.00000007490486440
0.00000007528243957 0.00000007528243957 0.00000007528243957
0.00000007566089982 0.00000007566089982 0.00000007566089982
0.00000007604024516 0.00000007604024516 0.00000007604024516
0.00000007642047557 0.00000007642047557 0.00000007642047557
0.00000007680159104 0.00000007680159104 0.00000007680159104
0.00000007718359157 0.00000007718359157 0.00000007718359157
0.00000007756647715 0.00000007756647715 0.00000007756647715
0.00000007795024778 0.00000007795024778 0.00000007795024778
0.00000007833490347 0.00000007833490347 0.00000007833490347
0.00000007872044421 0.00000007872044421 0.00000007872044421
0.00000007910687000 0.00000007910687000 0.00000007910687000
0.00000007949418085 0.00000007949418085 0.00000007949418085
0.00000007988237676 0.00000007988237676 0.00000007988237676
0.00000008027145773 0.00000008027145773 0.00000008027145773
0.00000008066142379 0.00000008066142379 0.00000008066142379
0.00000008105227492 0.00000008105227492 0.00000008105227492
0.00000008144401116 0.00000008144401116 0.00000008144401116
0.00000008183663250 0.00000008183663250 0.00000008183663250
0.00000008223013896 0.00000008223013896 0.00000008223013896
0.00000008262453056 0.00000008262453056 0.00000008262453056
0.00000008301980731 0.00000008301980731 0.00000008301980731
0.00000008341596923 0.00000008341596923 0.00000008341596923
0.00000008381301634 0.00000008381301634 0.00000008381301634
0.00000008421094865 0.00000008421094865 0.00000008421094865
0.00000008460976620 0.00000008460976620 0.00000008460976620
0.00000008500946900 0.00000008500946900 0.00000008500946900
0.00000008541005708 0.00000008541005708 0.00000008541005708
0.00000008581153046 0.00000008581153046 0.00000008581153046
0.00000008621388917 0.00000008621388917 0.00000008621388917
0.00000008661713324 0.00000008661713324 0.00000008661713324
0.00000008702126270 0.00000008702126270 0.00000008702126270
0.00000008742627757 0.00000008742627757 0.00000008742627757
0.00000008783217790 0.00000008783217790 0.00000008783217790
0.00000008823896371 0.00000008823896371 0.00000008823896371
0.00000008864663504 0.00000008864663504 0.00000008864663504
0.00000008905519192 0.00000008905519192 0.00000008905519192
0.00000008946463439 0.00000008946463439 0.00000008946463439
0.00000008987496249 0.00000008987496249 0.00000008987496249
0.00000009028617626 0.00000009028617626 0.00000009028617626
0.00000009069827574 0.00000009069827574 0.00000009069827574
0.00000009111126097 0.00000009111126097 0.00000009111126097
0.00000009152513199 0.00000009152513199 0.00000009152513199
0.00000009193988885 0.00000009193988885 0.00000009193988885
0.00000009235553159 0.00000009235553159 0.00000009235553159
